; generated by Slic3r 1.2.9 on 2017-01-20 at 09:15:19

; external perimeters extrusion width = 0.40mm
; perimeters extrusion width = 0.56mm
; infill extrusion width = 0.56mm
; solid infill extrusion width = 0.56mm
; top infill extrusion width = 0.25mm
; support material extrusion width = 0.40mm

M107
G28 ; home all axes
G1 Z5 F5000 ; lift nozzle

G21 ; set units to millimeters
G90 ; use absolute coordinates
M83 ; use relative distances for extrusion
G1 E-3.00000 F1200.00000
G1 Z0.275 F7800.000
G1 X62.879 Y67.640 F7800.000
G1 E3.00000 F1200.00000
G1 X63.472 Y67.169 E0.04080 F1080.000
G1 X64.380 Y66.566 E0.05877
G1 X65.043 Y66.201 E0.04079
G1 X66.040 Y65.757 E0.05878
G1 X66.754 Y65.509 E0.04076
G1 X67.811 Y65.239 E0.05880
G1 X68.559 Y65.113 E0.04087
G1 X69.631 Y65.024 E0.05796
G1 X130.369 Y65.024 E3.27313
G1 X131.443 Y65.114 E0.05807
G1 X132.189 Y65.239 E0.04076 F1080.000
G1 X133.246 Y65.509 E0.05880
G1 X133.960 Y65.757 E0.04077
G1 X134.957 Y66.201 E0.05880
G1 X135.621 Y66.566 E0.04079
G1 X136.529 Y67.170 E0.05877
G1 X137.121 Y67.640 E0.04076
G1 X137.916 Y68.388 E0.05880
G1 X138.423 Y68.953 E0.04093
G1 X139.079 Y69.822 E0.05863
G1 X139.482 Y70.461 E0.04077
G1 X139.985 Y71.430 E0.05881
G1 X140.276 Y72.128 E0.04076
G1 X140.610 Y73.167 E0.05880
G1 X140.780 Y73.906 E0.04086
G1 X140.934 Y74.984 E0.05870
G1 X140.989 Y76.117 E0.06111
G1 X140.989 Y123.883 E2.57412
G1 X140.934 Y125.016 E0.06111
G1 X140.780 Y126.096 E0.05880
G1 X140.610 Y126.833 E0.04077
G1 X140.276 Y127.872 E0.05880
G1 X139.984 Y128.573 E0.04090
G1 X139.482 Y129.539 E0.05867
G1 X139.078 Y130.180 E0.04085
G1 X138.421 Y131.049 E0.05871
G1 X137.916 Y131.612 E0.04077
G1 X137.121 Y132.360 E0.05880
G1 X136.529 Y132.830 E0.04077
G1 X135.620 Y133.434 E0.05880
G1 X134.956 Y133.799 E0.04081
G1 X133.960 Y134.243 E0.05875
G1 X133.243 Y134.492 E0.04090
G1 X132.189 Y134.761 E0.05867
G1 X131.443 Y134.886 E0.04077
G1 X130.369 Y134.976 E0.05807
G1 X69.631 Y134.976 E3.27313
G1 X68.557 Y134.886 E0.05807
G1 X67.811 Y134.761 E0.04077
G1 X66.754 Y134.491 E0.05880
G1 X66.040 Y134.243 E0.04077
G1 X65.043 Y133.799 E0.05880
G1 X64.380 Y133.434 E0.04077
G1 X63.471 Y132.830 E0.05880
G1 X62.879 Y132.360 E0.04076
G1 X62.085 Y131.612 E0.05879
G1 X61.579 Y131.049 E0.04078
G1 X60.921 Y130.178 E0.05880
G1 X60.516 Y129.537 E0.04087
G1 X60.015 Y128.570 E0.05870
G1 X59.724 Y127.872 E0.04077
G1 X59.390 Y126.833 E0.05880
G1 X59.220 Y126.096 E0.04077
G1 X59.066 Y125.016 E0.05880
G1 X59.021 Y124.260 E0.04083
G1 X59.011 Y76.117 E2.59440
G1 X59.066 Y74.984 E0.06111
G1 X59.220 Y73.904 E0.05880
G1 X59.390 Y73.167 E0.04077
G1 X59.724 Y72.128 E0.05880
G1 X60.015 Y71.429 E0.04082
G1 X60.517 Y70.461 E0.05874
G1 X60.922 Y69.821 E0.04082
G1 X61.579 Y68.951 E0.05875
G1 X62.084 Y68.388 E0.04077
G1 X62.835 Y67.681 E0.05557
G1 E-3.00000 F1200.00000
G1 X64.931 Y70.224 F7800.000
G1 E3.00000 F1200.00000
G1 X65.629 Y69.670 E0.04802 F1080.000
G1 X65.852 Y69.521 E0.01447
G1 X66.751 Y69.027 E0.05525
G1 X66.996 Y68.918 E0.01448
G1 X67.964 Y68.582 E0.05524
G1 X68.225 Y68.515 E0.01449
G1 X69.236 Y68.345 E0.05529
G1 X69.504 Y68.323 E0.01445
G1 X70.388 Y68.325 E0.04768
G1 X70.796 Y68.349 E0.02202 F1080.000
G1 X71.807 Y68.523 E0.05525
G1 X72.067 Y68.590 E0.01448
G1 X72.970 Y68.909 E0.05163
G1 X79.819 Y71.984 E0.40456
G1 X80.003 Y71.993 E0.00995
G1 X82.141 Y71.283 E0.12143
G1 X83.060 Y71.743 E0.05536
G1 X83.161 Y71.769 E0.00563
G1 X83.794 Y71.795 E0.03414
G1 X86.118 Y72.844 E0.13741
G1 X87.089 Y73.230 E0.05632
G1 X87.184 Y73.247 E0.00518
G1 X87.713 Y73.240 E0.02849
G1 X88.180 Y73.517 E0.02924
G1 X88.392 Y73.539 E0.01148
G1 X88.761 Y73.417 E0.02097
G1 X89.012 Y73.543 E0.01515
G1 X89.195 Y73.560 E0.00992
G1 X89.334 Y73.520 E0.00776
G1 X95.982 Y73.520 E0.35823
G1 X96.386 Y73.425 E0.02241
G1 X97.772 Y73.676 E0.07588
G1 X97.895 Y73.668 E0.00665
G1 X98.646 Y73.418 E0.04263
G1 X98.895 Y73.543 E0.01504
G1 X99.078 Y73.561 E0.00992
G1 X99.220 Y73.520 E0.00791
G1 X105.621 Y73.520 E0.34497
G1 X106.869 Y73.493 E0.06725
G1 X107.333 Y73.662 E0.02663
G1 X107.488 Y73.668 E0.00835
G1 X108.007 Y73.520 E0.02908
G1 X110.668 Y73.520 E0.14341
G1 X112.034 Y73.478 E0.07363
G1 X113.683 Y73.034 E0.09203
G1 X113.950 Y72.870 E0.01689
G1 X116.761 Y71.605 E0.16613
G1 X118.749 Y71.991 E0.10915
G1 X119.044 Y72.299 E0.02299
G1 X119.350 Y72.358 E0.01679
G1 X127.030 Y68.909 E0.45367
G1 X127.934 Y68.590 E0.05165
G1 X128.193 Y68.523 E0.01446
G1 X129.204 Y68.349 E0.05526
G1 X129.471 Y68.326 E0.01447
G1 X130.497 Y68.323 E0.05524
G1 X130.764 Y68.345 E0.01448
G1 X131.775 Y68.515 E0.05524
G1 X132.036 Y68.582 E0.01448
G1 X133.004 Y68.918 E0.05525
G1 X133.250 Y69.027 E0.01448
G1 X134.148 Y69.522 E0.05526
G1 X134.372 Y69.670 E0.01447
G1 X135.174 Y70.307 E0.05520
G1 X135.370 Y70.492 E0.01451
G1 X136.056 Y71.256 E0.05532
G1 X136.217 Y71.470 E0.01444
G1 X136.763 Y72.335 E0.05516
G1 X136.888 Y72.574 E0.01453
G1 X137.282 Y73.520 E0.05524
G1 X137.364 Y73.777 E0.01450
G1 X137.595 Y74.777 E0.05529
G1 X137.633 Y75.042 E0.01446
G1 X137.692 Y76.065 E0.05522
G1 X137.685 Y76.334 E0.01450
G1 X137.573 Y77.352 E0.05519
G1 X137.521 Y77.616 E0.01452
G1 X137.215 Y78.666 E0.05891
G1 X132.171 Y91.963 E0.76644
G1 X131.892 Y92.862 E0.05068
G1 X131.746 Y93.670 E0.04427
G1 X131.691 Y94.579 E0.04908
G1 X131.691 Y105.421 E0.58425
G1 X131.750 Y106.359 E0.05068
G1 X131.899 Y107.167 E0.04427
G1 X132.166 Y108.022 E0.04828
G1 X137.215 Y121.335 E0.76727
G1 X137.521 Y122.382 E0.05879
G1 X137.573 Y122.647 E0.01452
G1 X137.685 Y123.667 E0.05532
G1 X137.692 Y123.935 E0.01445
G1 X137.633 Y124.958 E0.05521
G1 X137.595 Y125.224 E0.01450
G1 X137.365 Y126.222 E0.05521
G1 X137.282 Y126.479 E0.01451
G1 X136.888 Y127.426 E0.05531
G1 X136.764 Y127.664 E0.01445
G1 X136.216 Y128.531 E0.05526
G1 X136.055 Y128.745 E0.01446
G1 X135.370 Y129.508 E0.05521
G1 X135.175 Y129.692 E0.01450
G1 X134.372 Y130.330 E0.05526
G1 X134.148 Y130.479 E0.01448
G1 X133.372 Y130.905 E0.04770
G1 X133.004 Y131.082 E0.02201
G1 X132.035 Y131.419 E0.05529
G1 X131.775 Y131.485 E0.01445
G1 X130.764 Y131.655 E0.05523
G1 X130.497 Y131.677 E0.01448
G1 X129.472 Y131.674 E0.05522
G1 X129.204 Y131.651 E0.01450
G1 X128.193 Y131.477 E0.05525
G1 X127.933 Y131.410 E0.01448
G1 X126.905 Y131.042 E0.05885
G1 X114.236 Y125.341 E0.74865
G1 X113.240 Y124.974 E0.05722
G1 X112.304 Y124.770 E0.05160
G1 X111.211 Y124.691 E0.05908
G1 X88.789 Y124.691 E1.20828
G1 X87.696 Y124.770 E0.05908
G1 X86.760 Y124.974 E0.05160
G1 X85.780 Y125.334 E0.05629
G1 X73.095 Y131.042 E0.74958
G1 X72.067 Y131.410 E0.05885
G1 X71.807 Y131.477 E0.01449
G1 X70.796 Y131.651 E0.05527
G1 X70.529 Y131.674 E0.01447
G1 X69.503 Y131.677 E0.05524
G1 X69.236 Y131.654 E0.01448
G1 X68.225 Y131.485 E0.05525
G1 X67.964 Y131.418 E0.01448
G1 X66.996 Y131.082 E0.05522
G1 X66.751 Y130.973 E0.01449
G1 X65.852 Y130.478 E0.05526
G1 X65.628 Y130.330 E0.01448
G1 X64.826 Y129.692 E0.05523
G1 X64.630 Y129.508 E0.01449
G1 X63.945 Y128.745 E0.05525
G1 X63.783 Y128.531 E0.01448
G1 X63.236 Y127.663 E0.05528
G1 X63.112 Y127.425 E0.01446
G1 X62.718 Y126.479 E0.05523
G1 X62.636 Y126.223 E0.01449
G1 X62.405 Y125.224 E0.05525
G1 X62.367 Y124.958 E0.01448
G1 X62.308 Y123.934 E0.05527
G1 X62.315 Y123.666 E0.01447
G1 X62.427 Y122.647 E0.05524
G1 X62.479 Y122.383 E0.01448
G1 X62.785 Y121.335 E0.05885
G1 X67.834 Y108.023 E0.76727
G1 X68.101 Y107.167 E0.04828
G1 X68.250 Y106.359 E0.04427
G1 X68.309 Y105.421 E0.05068
G1 X68.309 Y94.579 E0.58425
G1 X68.254 Y93.670 E0.04908
G1 X68.108 Y92.862 E0.04427
G1 X67.829 Y91.963 E0.05068
G1 X62.785 Y78.665 E0.76647
G1 X62.479 Y77.617 E0.05886
G1 X62.427 Y77.353 E0.01448
G1 X62.315 Y76.334 E0.05527
G1 X62.308 Y76.065 E0.01447
G1 X62.367 Y75.042 E0.05524
G1 X62.405 Y74.776 E0.01448
G1 X62.636 Y73.777 E0.05524
G1 X62.718 Y73.521 E0.01449
G1 X63.112 Y72.574 E0.05527
G1 X63.236 Y72.336 E0.01447
G1 X63.708 Y71.588 E0.04769
G1 X63.945 Y71.255 E0.02202
G1 X64.630 Y70.492 E0.05524
G1 X64.884 Y70.262 E0.01848
G1 X65.236 Y70.609 F7800.000
G1 X65.918 Y70.068 E0.04690 F1080.000
G1 X66.107 Y69.942 E0.01225
G1 X66.969 Y69.468 E0.05302
G1 X67.177 Y69.375 E0.01225
G1 X68.106 Y69.052 E0.05301
G1 X68.326 Y68.996 E0.01226
G1 X69.297 Y68.833 E0.05305
G1 X69.523 Y68.814 E0.01223
G1 X70.507 Y68.817 E0.05301
G1 X70.733 Y68.836 E0.01225
G1 X71.703 Y69.003 E0.05302
G1 X71.923 Y69.060 E0.01225
G1 X72.797 Y69.368 E0.04996
G1 X79.792 Y72.510 E0.41321
G1 X79.976 Y72.520 E0.00995
G1 X82.103 Y71.813 E0.12079
G1 X82.934 Y72.230 E0.05009
G1 X83.035 Y72.256 E0.00563
G1 X83.679 Y72.282 E0.03471
G1 X85.833 Y73.259 E0.12746
G1 X86.999 Y73.722 E0.06759
G1 X87.093 Y73.739 E0.00518
G1 X87.581 Y73.733 E0.02631
G1 X88.122 Y74.053 E0.03387
G1 X88.334 Y74.076 E0.01148
G1 X88.723 Y73.947 E0.02206
G1 X88.963 Y74.067 E0.01447
G1 X89.146 Y74.084 E0.00992
G1 X89.402 Y74.011 E0.01435
G1 X96.043 Y74.011 E0.35787
G1 X96.404 Y73.927 E0.01997
G1 X97.560 Y74.137 E0.06333
G1 X97.609 Y74.171 E0.00317
G1 X97.838 Y74.204 E0.01251
G1 X98.608 Y73.948 E0.04368
G1 X98.846 Y74.068 E0.01436
G1 X99.029 Y74.085 E0.00992
G1 X99.288 Y74.011 E0.01451
G1 X105.715 Y74.011 E0.34635
G1 X106.785 Y73.985 E0.05770
G1 X107.314 Y74.178 E0.03033
G1 X107.469 Y74.184 E0.00835
G1 X108.075 Y74.011 E0.03396
G1 X110.563 Y74.015 E0.13405
G1 X112.164 Y73.958 E0.08637
G1 X113.890 Y73.486 E0.09642
G1 X114.189 Y73.300 E0.01899
G1 X116.820 Y72.117 E0.15547
G1 X118.503 Y72.443 E0.09236
G1 X118.930 Y72.889 E0.03326
G1 X119.236 Y72.948 E0.01679
G1 X127.203 Y69.368 E0.47068
G1 X128.077 Y69.060 E0.04997
G1 X128.297 Y69.003 E0.01224
G1 X129.267 Y68.836 E0.05303
G1 X129.493 Y68.817 E0.01224
G1 X130.477 Y68.814 E0.05301
G1 X130.703 Y68.833 E0.01225 F1080.000
G1 X131.674 Y68.996 E0.05301
G1 X131.894 Y69.052 E0.01226
G1 X132.823 Y69.375 E0.05302
G1 X133.031 Y69.468 E0.01225
G1 X133.893 Y69.942 E0.05303
G1 X134.082 Y70.068 E0.01225
G1 X134.852 Y70.679 E0.05298
G1 X135.018 Y70.835 E0.01228
G1 X135.676 Y71.568 E0.05308
G1 X135.813 Y71.749 E0.01222
G1 X136.337 Y72.580 E0.05294
G1 X136.443 Y72.782 E0.01229
G1 X136.821 Y73.690 E0.05301
G1 X136.890 Y73.907 E0.01227
G1 X137.112 Y74.867 E0.05306
G1 X137.144 Y75.091 E0.01223
G1 X137.201 Y76.073 E0.05299
G1 X137.195 Y76.300 E0.01227
G1 X137.087 Y77.277 E0.05297
G1 X137.043 Y77.501 E0.01229
G1 X136.788 Y78.394 E0.05006
G1 X131.707 Y91.803 E0.77275
G1 X131.415 Y92.744 E0.05308
G1 X131.258 Y93.611 E0.04747
G1 X131.200 Y94.564 E0.05148
G1 X131.200 Y105.436 E0.58585
G1 X131.261 Y106.419 E0.05308
G1 X131.422 Y107.285 E0.04747
G1 X131.702 Y108.183 E0.05068
G1 X136.752 Y121.499 E0.76751
G1 X137.043 Y122.498 E0.05602
G1 X137.087 Y122.721 E0.01229
G1 X137.195 Y123.700 E0.05308
G1 X137.201 Y123.927 E0.01223
G1 X137.144 Y124.909 E0.05299
G1 X137.111 Y125.134 E0.01227
G1 X136.891 Y126.092 E0.05299
G1 X136.821 Y126.309 E0.01228
G1 X136.489 Y127.107 E0.04661
G1 X136.338 Y127.419 E0.01868
G1 X135.812 Y128.251 E0.05303
G1 X135.675 Y128.433 E0.01223
G1 X135.019 Y129.164 E0.05299
G1 X134.853 Y129.320 E0.01227
G1 X134.082 Y129.932 E0.05303
G1 X133.893 Y130.058 E0.01225
G1 X133.031 Y130.532 E0.05303
G1 X132.823 Y130.625 E0.01224
G1 X131.893 Y130.948 E0.05306
G1 X131.673 Y131.004 E0.01222
G1 X130.703 Y131.167 E0.05300
G1 X130.477 Y131.185 E0.01225
G1 X129.493 Y131.183 E0.05300
G1 X129.267 Y131.164 E0.01227
G1 X128.297 Y130.997 E0.05302
G1 X128.077 Y130.940 E0.01226
G1 X127.203 Y130.632 E0.04994
G1 X114.406 Y124.879 E0.75609
G1 X113.377 Y124.501 E0.05909
G1 X112.373 Y124.283 E0.05534
G1 X111.228 Y124.200 E0.06188
G1 X88.772 Y124.200 E1.21015
G1 X87.661 Y124.278 E0.06002
G1 X86.623 Y124.501 E0.05720
G1 X85.578 Y124.886 E0.06002
G1 X72.903 Y130.590 E0.74903
G1 X71.923 Y130.940 E0.05606
G1 X71.703 Y130.997 E0.01226
G1 X70.733 Y131.164 E0.05303
G1 X70.507 Y131.183 E0.01224
G1 X69.523 Y131.185 E0.05302
G1 X69.297 Y131.167 E0.01225
G1 X68.326 Y131.004 E0.05302
G1 X68.106 Y130.948 E0.01225
G1 X67.177 Y130.625 E0.05300
G1 X66.969 Y130.532 E0.01227
G1 X66.107 Y130.058 E0.05303
G1 X65.918 Y129.932 E0.01225
G1 X65.147 Y129.321 E0.05300
G1 X64.982 Y129.165 E0.01226
G1 X64.324 Y128.432 E0.05302
G1 X64.187 Y128.251 E0.01225
G1 X63.662 Y127.419 E0.05305
G1 X63.557 Y127.217 E0.01223
G1 X63.179 Y126.309 E0.05300
G1 X63.109 Y126.093 E0.01226
G1 X62.889 Y125.134 E0.05302
G1 X62.856 Y124.909 E0.01225
G1 X62.799 Y123.926 E0.05304
G1 X62.805 Y123.699 E0.01224
G1 X62.913 Y122.722 E0.05301
G1 X62.957 Y122.498 E0.01225
G1 X63.247 Y121.499 E0.05607
G1 X68.298 Y108.183 E0.76752
G1 X68.578 Y107.285 E0.05068
G1 X68.739 Y106.419 E0.04747
G1 X68.800 Y105.436 E0.05308
G1 X68.800 Y94.564 E0.58585
G1 X68.742 Y93.611 E0.05148
G1 X68.585 Y92.744 E0.04747
G1 X68.293 Y91.803 E0.05308
G1 X63.248 Y78.501 E0.76671
G1 X62.957 Y77.501 E0.05607
G1 X62.913 Y77.278 E0.01225
G1 X62.805 Y76.300 E0.05304
G1 X62.799 Y76.073 E0.01224
G1 X62.856 Y75.091 E0.05301
G1 X62.889 Y74.866 E0.01225
G1 X63.109 Y73.907 E0.05301
G1 X63.179 Y73.691 E0.01226
G1 X63.558 Y72.782 E0.05304
G1 X63.662 Y72.581 E0.01224
G1 X64.124 Y71.850 E0.04658
G1 X64.324 Y71.567 E0.01868
G1 X64.982 Y70.835 E0.05301
G1 X65.189 Y70.646 E0.01514
G1 E-3.00000 F1200.00000
G1 X119.121 Y73.538 F7800.000
G1 E3.00000 F1200.00000
G1 X127.375 Y69.828 E0.48768 F1080.000
G1 X128.221 Y69.530 E0.04830
G1 X128.401 Y69.483 E0.01001
G1 X129.330 Y69.323 E0.05080
G1 X129.515 Y69.307 E0.01002
G1 X130.457 Y69.306 E0.05079
G1 X130.643 Y69.321 E0.01002
G1 X131.572 Y69.477 E0.05079
G1 X131.752 Y69.523 E0.01003
G1 X132.643 Y69.832 E0.05079
G1 X132.813 Y69.908 E0.01003
G1 X133.639 Y70.362 E0.05080
G1 X133.793 Y70.465 E0.01002
G1 X134.531 Y71.051 E0.05076
G1 X134.667 Y71.179 E0.01004
G1 X135.297 Y71.881 E0.05084
G1 X135.409 Y72.029 E0.01000
G1 X135.911 Y72.825 E0.05073
G1 X135.997 Y72.990 E0.01006
G1 X136.360 Y73.860 E0.05078
G1 X136.417 Y74.038 E0.01004
G1 X136.628 Y74.957 E0.05082
G1 X136.655 Y75.140 E0.01001
G1 X136.710 Y76.081 E0.05077
G1 X136.705 Y76.267 E0.01004
G1 X136.601 Y77.203 E0.05075
G1 X136.565 Y77.386 E0.01006
G1 X136.290 Y78.337 E0.05333
G1 X131.237 Y91.657 E0.76773
G1 X130.944 Y92.597 E0.05309
G1 X130.773 Y93.522 E0.05067
G1 X130.710 Y94.535 E0.05468
G1 X130.709 Y105.450 E0.58825
G1 X130.769 Y106.449 E0.05388
G1 X130.937 Y107.374 E0.05067
G1 X131.242 Y108.357 E0.05548
G1 X136.290 Y121.664 E0.76696
G1 X136.565 Y122.613 E0.05324
G1 X136.601 Y122.796 E0.01005
G1 X136.705 Y123.733 E0.05084
G1 X136.710 Y123.919 E0.01000
G1 X136.655 Y124.859 E0.05076
G1 X136.628 Y125.044 E0.01004
G1 X136.417 Y125.962 E0.05077
G1 X136.360 Y126.139 E0.01004
G1 X135.997 Y127.010 E0.05083
G1 X135.912 Y127.175 E0.01000
G1 X135.408 Y127.972 E0.05080
G1 X135.296 Y128.120 E0.01001
G1 X134.667 Y128.821 E0.05077
G1 X134.531 Y128.949 E0.01004
G1 X133.793 Y129.535 E0.05080
G1 X133.638 Y129.638 E0.01002
G1 X132.812 Y130.092 E0.05080
G1 X132.643 Y130.168 E0.01002
G1 X131.752 Y130.477 E0.05082
G1 X131.572 Y130.523 E0.01000
G1 X130.643 Y130.679 E0.05078
G1 X130.457 Y130.694 E0.01003
G1 X129.515 Y130.693 E0.05077
G1 X129.330 Y130.676 E0.01004
G1 X128.401 Y130.517 E0.05079
G1 X128.221 Y130.470 E0.01003
G1 X127.289 Y130.138 E0.05329
G1 X114.608 Y124.431 E0.74941
G1 X113.514 Y124.028 E0.06282
G1 X112.408 Y123.791 E0.06093
G1 X111.245 Y123.709 E0.06282
G1 X88.755 Y123.709 E1.21201
G1 X87.558 Y123.796 E0.06468
G1 X86.486 Y124.028 E0.05907
G1 X85.408 Y124.425 E0.06189
G1 X72.711 Y130.138 E0.75034
G1 X71.780 Y130.470 E0.05328
G1 X71.599 Y130.517 E0.01003
G1 X70.670 Y130.676 E0.05080
G1 X70.485 Y130.692 E0.01002
G1 X69.543 Y130.694 E0.05079
G1 X69.357 Y130.679 E0.01002
G1 X68.525 Y130.540 E0.04547
G1 X68.248 Y130.477 E0.01534
G1 X67.358 Y130.168 E0.05078
G1 X67.188 Y130.092 E0.01003
G1 X66.362 Y129.638 E0.05080
G1 X66.207 Y129.535 E0.01003
G1 X65.469 Y128.949 E0.05078
G1 X65.333 Y128.821 E0.01003
G1 X64.704 Y128.120 E0.05079
G1 X64.591 Y127.972 E0.01002
G1 X64.088 Y127.174 E0.05082
G1 X64.003 Y127.009 E0.01001
G1 X63.640 Y126.140 E0.05078
G1 X63.583 Y125.962 E0.01003
G1 X63.372 Y125.044 E0.05079
G1 X63.345 Y124.860 E0.01003
G1 X63.296 Y124.017 E0.04547
G1 X63.295 Y123.733 E0.01534
G1 X63.399 Y122.796 E0.05079
G1 X63.435 Y122.614 E0.01002
G1 X63.710 Y121.664 E0.05329
G1 X68.758 Y108.357 E0.76696
