; generated by Slic3r 1.2.9 on 2016-10-13 at 09:13:51

; external perimeters extrusion width = 0.40mm
; perimeters extrusion width = 0.56mm
; infill extrusion width = 0.56mm
; solid infill extrusion width = 0.56mm
; top infill extrusion width = 0.25mm

M107
G28 ; home all axes
G1 Z5 F5000 ; lift nozzle

G21 ; set units to millimeters
G90 ; use absolute coordinates
M83 ; use relative distances for extrusion
G1 E-3.00000 F1200.00000
G1 Z0.275 F7800.000
G1 X49.296 Y65.955 F7800.000
G1 E3.00000 F1200.00000
G1 X51.730 Y65.155 E0.13807 F1080.000
G1 X93.580 Y60.155 E2.27132
G1 X94.350 Y60.109 E0.04157
G1 X107.850 Y60.109 E0.72751
G1 X108.662 Y60.160 E0.04385
G1 X148.312 Y65.160 E2.15365 F1080.000
G1 X150.480 Y65.833 E0.12233
G1 X152.283 Y67.212 E0.12233
G1 X153.502 Y69.127 E0.12233
G1 X153.991 Y71.600 E0.13583
G1 X153.991 Y107.600 E1.94003
G1 X153.872 Y108.835 E0.06686
G1 X148.872 Y134.635 E1.41622
G1 X148.058 Y136.754 E0.12233
G1 X146.563 Y138.462 E0.12233
G1 X144.571 Y139.552 E0.12233
G1 X142.500 Y139.891 E0.11312
G1 X52.500 Y139.891 E4.85007
G1 X50.265 Y139.494 E0.12233
G1 X48.303 Y138.352 E0.12233
G1 X46.855 Y136.604 E0.12233
G1 X46.009 Y133.400 E0.17858
G1 X46.009 Y71.600 E3.33038
G1 X46.406 Y69.365 E0.12233
G1 X47.548 Y67.403 E0.12233
G1 X49.250 Y65.993 E0.11909
G1 E-3.00000 F1200.00000
G1 X51.178 Y68.409 F7800.000
G1 E3.00000 F1200.00000
G1 X87.922 Y68.409 E1.98014 F1080.000
G1 X88.103 Y68.334 E0.01053
G1 X92.542 Y63.894 E0.33834
G1 X93.715 Y63.409 E0.06841
G1 X108.485 Y63.409 E0.79593
G1 X109.658 Y63.894 E0.06842
G1 X114.097 Y68.334 E0.33833 F1080.000
G1 X114.278 Y68.409 E0.01053
G1 X148.822 Y68.409 E1.86158
G1 X150.691 Y70.278 E0.14248
G1 X150.691 Y108.235 E2.04548
G1 X150.206 Y109.408 E0.06842
G1 X145.766 Y113.847 E0.33833
G1 X145.691 Y114.028 E0.01053
G1 X145.691 Y134.722 E1.11521
G1 X143.822 Y136.591 E0.14248
G1 X51.178 Y136.591 E4.99255
G1 X49.309 Y134.722 E0.14248
G1 X49.309 Y70.278 E3.47286
G1 X51.136 Y68.451 E0.13924
G1 X51.381 Y68.900 F7800.000
G1 X88.126 Y68.900 E1.98014 F1080.000
G1 X88.306 Y68.825 E0.01053
G1 X92.820 Y64.311 E0.34404
G1 X93.813 Y63.900 E0.05789
G1 X108.387 Y63.900 E0.78540
G1 X109.380 Y64.311 E0.05789 F1080.000
G1 X113.894 Y68.825 E0.34403
G1 X114.074 Y68.900 E0.01053
G1 X148.619 Y68.900 E1.86158
G1 X150.200 Y70.481 E0.12056
G1 X150.200 Y108.137 E2.02925
G1 X149.789 Y109.130 E0.05789
G1 X145.275 Y113.644 E0.34403
G1 X145.200 Y113.824 E0.01053
G1 X145.200 Y134.519 E1.11521
G1 X143.619 Y136.100 E0.12056
G1 X51.381 Y136.100 E4.97063
G1 X49.800 Y134.519 E0.12056
G1 X49.800 Y70.481 E3.45094
G1 X51.339 Y68.942 E0.11732
G1 X51.585 Y69.391 F7800.000
G1 X88.329 Y69.391 E1.98014 F1080.000
G1 X88.510 Y69.316 E0.01053
G1 X93.099 Y64.727 E0.34973
G1 X93.911 Y64.391 E0.04736
G1 X108.289 Y64.391 E0.77488
G1 X109.102 Y64.727 E0.04737
G1 X113.690 Y69.316 E0.34973 F1080.000
G1 X113.871 Y69.391 E0.01053
G1 X148.415 Y69.391 E1.86158
G1 X149.709 Y70.685 E0.09864
G1 X149.709 Y108.039 E2.01303
G1 X149.373 Y108.852 E0.04737
G1 X144.784 Y113.440 E0.34972
G1 X144.709 Y113.621 E0.01053
G1 X144.709 Y134.315 E1.11521
G1 X143.415 Y135.609 E0.09864
G1 X51.585 Y135.609 E4.94871
G1 X50.291 Y134.315 E0.09864
G1 X50.291 Y70.685 E3.42902
G1 X51.542 Y69.433 E0.09540
G1 X51.788 Y69.882 F7800.000
G1 X88.532 Y69.882 E1.98014 F1080.000
G1 X88.713 Y69.807 E0.01053
G1 X93.377 Y65.143 E0.35543
G1 X94.008 Y64.882 E0.03684
G1 X108.192 Y64.882 E0.76435
G1 X108.823 Y65.143 E0.03684 F1080.000
G1 X113.487 Y69.807 E0.35542
G1 X113.668 Y69.882 E0.01053
G1 X148.212 Y69.882 E1.86158
G1 X149.218 Y70.888 E0.07672
G1 X149.218 Y107.942 E1.99681
G1 X148.957 Y108.573 E0.03684
G1 X144.293 Y113.237 E0.35542
G1 X144.218 Y113.418 E0.01053
G1 X144.218 Y134.112 E1.11521
G1 X143.212 Y135.118 E0.07672
G1 X51.788 Y135.118 E4.92679
G1 X50.782 Y134.112 E0.07672
G1 X50.782 Y70.888 E3.40710
G1 X51.746 Y69.924 E0.07348
G1 X51.992 Y70.373 F7800.000
G1 X88.736 Y70.373 E1.98014 F1080.000
G1 X88.916 Y70.298 E0.01053
G1 X93.655 Y65.559 E0.36112
G1 X94.106 Y65.373 E0.02631
G1 X108.094 Y65.373 E0.75382
G1 X108.545 Y65.559 E0.02632
G1 X113.284 Y70.298 E0.36112 F1080.000
G1 X113.464 Y70.373 E0.01053
G1 X148.008 Y70.373 E1.86158
G1 X148.727 Y71.092 E0.05480
G1 X148.727 Y107.844 E1.98059
G1 X148.541 Y108.295 E0.02632
G1 X143.802 Y113.034 E0.36112
G1 X143.727 Y113.214 E0.01053
G1 X143.727 Y133.908 E1.11521
G1 X143.008 Y134.627 E0.05480
G1 X51.992 Y134.627 E4.90487
G1 X51.273 Y133.908 E0.05480
G1 X51.273 Y71.092 E3.38518
G1 X51.949 Y70.415 E0.05156
G1 X52.195 Y70.864 F7800.000
G1 X88.939 Y70.864 E1.98014 F1080.000
G1 X89.120 Y70.789 E0.01053
G1 X93.933 Y65.976 E0.36682
G1 X94.204 Y65.864 E0.01579
G1 X107.996 Y65.864 E0.74330
G1 X108.267 Y65.976 E0.01579 F1080.000
G1 X113.080 Y70.789 E0.36682
G1 X113.261 Y70.864 E0.01053
G1 X147.805 Y70.864 E1.86158
G1 X148.236 Y71.295 E0.03288
G1 X148.236 Y107.746 E1.96436
G1 X148.124 Y108.017 E0.01579
G1 X143.311 Y112.830 E0.36682
G1 X143.236 Y113.011 E0.01053
G1 X143.236 Y133.705 E1.11521
G1 X142.805 Y134.136 E0.03288
G1 X52.195 Y134.136 E4.88295
G1 X51.764 Y133.705 E0.03288
G1 X51.764 Y71.295 E3.36326
G1 X52.153 Y70.906 E0.02965
G1 X52.255 Y71.498 F7800.000
G1 X52.398 Y71.355 E0.01096 F1080.000
G1 X89.143 Y71.355 E1.98014
G1 X89.323 Y71.280 E0.01053
G1 X94.211 Y66.392 E0.37251
G1 X94.301 Y66.355 E0.00526
G1 X107.899 Y66.355 E0.73277
G1 X107.989 Y66.392 E0.00526
G1 X112.877 Y71.280 E0.37251
G1 X113.057 Y71.355 E0.01053
G1 X147.602 Y71.355 E1.86158
G1 X147.745 Y71.498 E0.01096
G1 X147.745 Y107.649 E1.94814
G1 X147.708 Y107.739 E0.00526
G1 X142.820 Y112.627 E0.37251
G1 X142.745 Y112.807 E0.01053
G1 X142.745 Y133.502 E1.11521
G1 X142.602 Y133.645 E0.01096
G1 X52.398 Y133.645 E4.86103
G1 X52.255 Y133.502 E0.01096
G1 X52.255 Y71.558 E3.33811
G1 E-3.00000 F1200.00000
G1 X142.225 Y133.125 F7800.000
G1 E3.00000 F1200.00000
G1 X52.775 Y133.125 E4.82043 F324.000
G1 X52.775 Y71.875 E3.30074
G1 X89.464 Y71.875 E1.97715
G1 X94.464 Y66.875 E0.38106
G1 X107.736 Y66.875 E0.71523
G1 X112.736 Y71.875 E0.38106
G1 X147.225 Y71.875 E1.85860
G1 X147.225 Y107.486 E1.91907
G1 X142.225 Y112.486 E0.38106
G1 X142.225 Y133.065 E1.10899
G1 X141.879 Y132.925 F7800.000
G1 X141.734 Y132.634 F7800.000
G1 X53.266 Y132.634 E4.76752 F540.000
G1 X53.266 Y72.366 E3.24783
G1 X89.667 Y72.366 E1.96165
G1 X94.667 Y67.366 E0.38106
G1 X107.533 Y67.366 E0.69331
G1 X112.533 Y72.366 E0.38106
G1 X146.734 Y72.366 E1.84310
G1 X146.734 Y107.283 E1.88165
G1 X141.734 Y112.283 E0.38106
G1 X141.734 Y132.574 E1.09349
G1 X141.243 Y132.143 F7800.000
G1 X53.757 Y132.143 E4.71460 F540.000
G1 X53.757 Y72.857 E3.19491
G1 X89.871 Y72.857 E1.94616
G1 X94.871 Y67.857 E0.38106
G1 X107.329 Y67.857 E0.67140
G1 X112.329 Y72.857 E0.38106
G1 X146.243 Y72.857 E1.82760
G1 X146.243 Y107.079 E1.84423
G1 X141.243 Y112.079 E0.38106
G1 X141.243 Y132.083 E1.07799
G1 E-3.00000 F1200.00000
G1 X145.950 Y73.398 F7800.000
G1 E3.00000 F1200.00000
G1 X145.702 Y73.150 E0.01894 F900.000
G1 X145.007 Y73.150 E0.03748
G1 X145.950 Y74.093 E0.07194
G1 X145.950 Y74.788 E0.03748
G1 X144.312 Y73.150 E0.12495
G1 X143.617 Y73.150 E0.03748
G1 X145.950 Y75.483 E0.17795
G1 X145.950 Y76.178 E0.03748
G1 X142.922 Y73.150 E0.23096
G1 X142.227 Y73.150 E0.03748
G1 X145.950 Y76.873 E0.28396
G1 X145.950 Y77.568 E0.03748
G1 X141.532 Y73.150 E0.33696
G1 X140.837 Y73.150 E0.03748
G1 X145.950 Y78.263 E0.38997
G1 X145.950 Y78.958 E0.03748
G1 X140.142 Y73.150 E0.44297
G1 X139.447 Y73.150 E0.03748
G1 X145.950 Y79.653 E0.49598
G1 X145.950 Y80.348 E0.03748
G1 X138.752 Y73.150 E0.54898
G1 X138.057 Y73.150 E0.03748
G1 X145.950 Y81.043 E0.60198
G1 X145.950 Y81.737 E0.03748
G1 X137.363 Y73.150 E0.65499
G1 X136.668 Y73.150 E0.03748
G1 X145.950 Y82.432 E0.70799
G1 X145.950 Y83.127 E0.03748
G1 X135.973 Y73.150 E0.76100
G1 X135.278 Y73.150 E0.03748
G1 X145.950 Y83.822 E0.81400
G1 X145.950 Y84.517 E0.03748
G1 X134.583 Y73.150 E0.86700
G1 X133.888 Y73.150 E0.03748
G1 X145.950 Y85.212 E0.92001
G1 X145.950 Y85.907 E0.03748
G1 X133.193 Y73.150 E0.97301
G1 X132.498 Y73.150 E0.03748
G1 X145.950 Y86.602 E1.02602
G1 X145.950 Y87.297 E0.03748
G1 X131.803 Y73.150 E1.07902
G1 X131.108 Y73.150 E0.03748
G1 X145.950 Y87.992 E1.13203
G1 X145.950 Y88.687 E0.03748
G1 X130.413 Y73.150 E1.18503
G1 X129.718 Y73.150 E0.03748
G1 X145.950 Y89.382 E1.23803
G1 X145.950 Y90.077 E0.03748
G1 X129.023 Y73.150 E1.29104
G1 X128.329 Y73.150 E0.03748
G1 X145.950 Y90.771 E1.34404
G1 X145.950 Y91.466 E0.03748
G1 X127.634 Y73.150 E1.39705
G1 X126.939 Y73.150 E0.03748
G1 X145.950 Y92.161 E1.45005
G1 X145.950 Y92.856 E0.03748
G1 X126.244 Y73.150 E1.50305
G1 X125.549 Y73.150 E0.03748
G1 X145.950 Y93.551 E1.55606
G1 X145.950 Y94.246 E0.03748
G1 X124.854 Y73.150 E1.60906
G1 X124.159 Y73.150 E0.03748
G1 X145.950 Y94.941 E1.66207
G1 X145.950 Y95.636 E0.03748
G1 X123.464 Y73.150 E1.71507
G1 X122.769 Y73.150 E0.03748
G1 X145.950 Y96.331 E1.76807
G1 X145.950 Y97.026 E0.03748
G1 X122.074 Y73.150 E1.82108
G1 X121.379 Y73.150 E0.03748
G1 X145.950 Y97.721 E1.87408
G1 X145.950 Y98.416 E0.03748
G1 X120.684 Y73.150 E1.92709
G1 X119.989 Y73.150 E0.03748
G1 X145.950 Y99.111 E1.98009
G1 X145.950 Y99.805 E0.03748
G1 X119.295 Y73.150 E2.03309
G1 X118.600 Y73.150 E0.03748
G1 X145.950 Y100.500 E2.08610
G1 X145.950 Y101.195 E0.03748
G1 X117.905 Y73.150 E2.13910
G1 X117.210 Y73.150 E0.03748
G1 X145.950 Y101.890 E2.19211
G1 X145.950 Y102.585 E0.03748
G1 X116.515 Y73.150 E2.24511
G1 X115.820 Y73.150 E0.03748
G1 X145.950 Y103.280 E2.29811
G1 X145.950 Y103.975 E0.03748
G1 X115.125 Y73.150 E2.35112
G1 X114.430 Y73.150 E0.03748
G1 X145.950 Y104.670 E2.40412
G1 X145.950 Y105.365 E0.03748
G1 X113.735 Y73.150 E2.45713
G1 X113.040 Y73.150 E0.03748
G1 X145.950 Y106.060 E2.51013
G1 X145.950 Y106.755 E0.03748
G1 X112.345 Y73.150 E2.56314
G1 X106.650 Y68.150 F7800.000
G1 X145.735 Y107.234 E2.98108 F900.000
G1 X145.387 Y107.582 E0.02650
G1 X105.955 Y68.150 E3.00758
G1 X105.261 Y68.150 E0.03748
G1 X145.040 Y107.929 E3.03409
G1 X144.692 Y108.277 E0.02650
G1 X104.566 Y68.150 E3.06059
G1 X103.871 Y68.150 E0.03748
G1 X144.345 Y108.624 E3.08709
G1 X143.997 Y108.972 E0.02650
G1 X103.176 Y68.150 E3.11359
G1 X102.481 Y68.150 E0.03748
G1 X143.650 Y109.319 E3.14010
G1 X143.302 Y109.666 E0.02650
G1 X101.786 Y68.150 E3.16660
G1 X101.091 Y68.150 E0.03748
G1 X142.955 Y110.014 E3.19310
G1 X142.607 Y110.361 E0.02650
G1 X100.396 Y68.150 E3.21960
G1 X99.701 Y68.150 E0.03748
G1 X142.260 Y110.709 E3.24610
G1 X141.912 Y111.056 E0.02650
G1 X99.006 Y68.150 E3.27261
G1 X98.311 Y68.150 E0.03748
G1 X141.565 Y111.404 E3.29911
G1 X141.218 Y111.751 E0.02650
G1 X97.616 Y68.150 E3.32561
G1 X96.922 Y68.150 E0.03748
G1 X140.950 Y112.178 E3.35820
G1 X140.950 Y112.873 E0.03748
G1 X96.227 Y68.150 E3.41120
G1 X95.532 Y68.150 E0.03748
G1 X140.950 Y113.568 E3.46420
G1 X140.950 Y114.263 E0.03748
G1 X94.884 Y68.197 E3.51361
G1 X94.536 Y68.545 E0.02650
G1 X140.950 Y114.958 E3.54011
G1 X140.950 Y115.653 E0.03748
G1 X94.189 Y68.892 E3.56662
G1 X93.842 Y69.240 E0.02650
G1 X140.950 Y116.348 E3.59312
G1 X140.950 Y117.043 E0.03748
G1 X93.494 Y69.587 E3.61962
G1 X93.147 Y69.935 E0.02650
G1 X140.950 Y117.738 E3.64612
G1 X140.950 Y118.433 E0.03748
G1 X92.799 Y70.282 E3.67262
G1 X92.452 Y70.630 E0.02650
G1 X140.950 Y119.128 E3.69913
G1 X140.950 Y119.823 E0.03748
G1 X92.104 Y70.977 E3.72563
G1 X91.757 Y71.324 E0.02650
G1 X140.950 Y120.518 E3.75213
G1 X140.950 Y121.212 E0.03748
G1 X91.409 Y71.672 E3.77863
G1 X91.062 Y72.019 E0.02650
G1 X140.950 Y121.907 E3.80513
G1 X140.950 Y122.602 E0.03748
G1 X90.714 Y72.367 E3.83164
G1 X90.367 Y72.714 E0.02650
G1 X140.950 Y123.297 E3.85814
G1 X140.950 Y123.992 E0.03748
G1 X90.019 Y73.062 E3.88464
G1 X89.413 Y73.150 E0.03306
G1 X140.950 Y124.687 E3.93090
G1 X140.950 Y125.382 E0.03748
G1 X88.718 Y73.150 E3.98391
G1 X88.023 Y73.150 E0.03748
G1 X140.950 Y126.077 E4.03691
G1 X140.950 Y126.772 E0.03748
G1 X87.328 Y73.150 E4.08991
G1 X86.633 Y73.150 E0.03748
G1 X140.950 Y127.467 E4.14292
G1 X140.950 Y128.162 E0.03748
G1 X85.938 Y73.150 E4.19592
G1 X85.243 Y73.150 E0.03748
G1 X140.950 Y128.857 E4.24893
G1 X140.950 Y129.552 E0.03748
G1 X84.548 Y73.150 E4.30193
G1 X83.854 Y73.150 E0.03748
G1 X140.950 Y130.246 E4.35494
G1 X140.950 Y130.941 E0.03748
G1 X83.159 Y73.150 E4.40794
G1 X82.464 Y73.150 E0.03748
G1 X140.950 Y131.636 E4.46094
G1 X140.469 Y131.850 E0.02840
G1 X81.769 Y73.150 E4.47723
G1 X81.074 Y73.150 E0.03748
G1 X139.774 Y131.850 E4.47723
G1 X139.079 Y131.850 E0.03748
G1 X80.379 Y73.150 E4.47723
G1 X79.684 Y73.150 E0.03748
G1 X138.384 Y131.850 E4.47723
G1 X137.689 Y131.850 E0.03748
G1 X78.989 Y73.150 E4.47723
G1 X78.294 Y73.150 E0.03748
G1 X136.994 Y131.850 E4.47723
G1 X136.299 Y131.850 E0.03748
G1 X77.599 Y73.150 E4.47723
G1 X76.904 Y73.150 E0.03748
G1 X135.604 Y131.850 E4.47723
G1 X134.909 Y131.850 E0.03748
G1 X76.209 Y73.150 E4.47723
G1 X75.515 Y73.150 E0.03748
G1 X134.214 Y131.850 E4.47723
G1 X133.519 Y131.850 E0.03748
G1 X74.820 Y73.150 E4.47723
G1 X74.125 Y73.150 E0.03748
G1 X132.824 Y131.850 E4.47723
G1 X132.129 Y131.850 E0.03748
G1 X73.430 Y73.150 E4.47723
G1 X72.735 Y73.150 E0.03748
G1 X131.435 Y131.850 E4.47723
G1 X130.740 Y131.850 E0.03748
G1 X72.040 Y73.150 E4.47723
G1 X71.345 Y73.150 E0.03748
G1 X130.045 Y131.850 E4.47723
G1 X129.350 Y131.850 E0.03748
G1 X70.650 Y73.150 E4.47723
G1 X69.955 Y73.150 E0.03748
G1 X128.655 Y131.850 E4.47723
G1 X127.960 Y131.850 E0.03748
G1 X69.260 Y73.150 E4.47723
G1 X68.565 Y73.150 E0.03748
G1 X127.265 Y131.850 E4.47723
G1 X126.570 Y131.850 E0.03748
G1 X67.870 Y73.150 E4.47723
G1 X67.175 Y73.150 E0.03748
G1 X125.875 Y131.850 E4.47723
G1 X125.180 Y131.850 E0.03748
G1 X66.481 Y73.150 E4.47723
G1 X65.786 Y73.150 E0.03748
G1 X124.485 Y131.850 E4.47723
G1 X123.790 Y131.850 E0.03748
G1 X65.091 Y73.150 E4.47723
G1 X64.396 Y73.150 E0.03748
G1 X123.095 Y131.850 E4.47723
G1 X122.401 Y131.850 E0.03748
G1 X63.701 Y73.150 E4.47723
G1 X63.006 Y73.150 E0.03748
G1 X121.706 Y131.850 E4.47723
G1 X121.011 Y131.850 E0.03748
G1 X62.311 Y73.150 E4.47723
G1 X61.616 Y73.150 E0.03748
G1 X120.316 Y131.850 E4.47723
G1 X119.621 Y131.850 E0.03748
G1 X60.921 Y73.150 E4.47723
G1 X60.226 Y73.150 E0.03748
G1 X118.926 Y131.850 E4.47723
G1 X118.231 Y131.850 E0.03748
G1 X59.531 Y73.150 E4.47723
G1 X58.836 Y73.150 E0.03748
G1 X117.536 Y131.850 E4.47723
G1 X116.841 Y131.850 E0.03748
G1 X58.141 Y73.150 E4.47723
G1 X57.447 Y73.150 E0.03748
G1 X116.146 Y131.850 E4.47723
G1 X115.451 Y131.850 E0.03748
G1 X56.752 Y73.150 E4.47723
G1 X56.057 Y73.150 E0.03748
G1 X114.756 Y131.850 E4.47723
G1 X114.062 Y131.850 E0.03748
G1 X55.362 Y73.150 E4.47723
G1 X54.667 Y73.150 E0.03748
G1 X113.367 Y131.850 E4.47723
G1 X112.672 Y131.850 E0.03748
G1 X54.050 Y73.228 E4.47127
G1 X54.050 Y73.923 E0.03748
G1 X111.977 Y131.850 E4.41827
G1 X111.282 Y131.850 E0.03748
G1 X54.050 Y74.618 E4.36526
G1 X54.050 Y75.313 E0.03748
G1 X110.587 Y131.850 E4.31226
G1 X109.892 Y131.850 E0.03748
G1 X54.050 Y76.008 E4.25925
G1 X54.050 Y76.703 E0.03748
G1 X109.197 Y131.850 E4.20625
G1 X108.502 Y131.850 E0.03748
G1 X54.050 Y77.398 E4.15325
G1 X54.050 Y78.093 E0.03748
G1 X107.807 Y131.850 E4.10024
G1 X107.112 Y131.850 E0.03748
G1 X54.050 Y78.788 E4.04724
G1 X54.050 Y79.483 E0.03748
G1 X106.417 Y131.850 E3.99423
G1 X105.722 Y131.850 E0.03748
G1 X54.050 Y80.178 E3.94123
G1 X54.050 Y80.872 E0.03748
G1 X105.028 Y131.850 E3.88823
G1 X104.333 Y131.850 E0.03748
G1 X54.050 Y81.567 E3.83522
G1 X54.050 Y82.262 E0.03748
G1 X103.638 Y131.850 E3.78222
G1 X102.943 Y131.850 E0.03748
G1 X54.050 Y82.957 E3.72921
G1 X54.050 Y83.652 E0.03748
G1 X102.248 Y131.850 E3.67621
G1 X101.553 Y131.850 E0.03748
G1 X54.050 Y84.347 E3.62321
G1 X54.050 Y85.042 E0.03748
G1 X100.858 Y131.850 E3.57020
G1 X100.163 Y131.850 E0.03748
G1 X54.050 Y85.737 E3.51720
G1 X54.050 Y86.432 E0.03748
G1 X99.468 Y131.850 E3.46419
G1 X98.773 Y131.850 E0.03748
G1 X54.050 Y87.127 E3.41119
G1 X54.050 Y87.822 E0.03748
G1 X98.078 Y131.850 E3.35818
G1 X97.383 Y131.850 E0.03748
G1 X54.050 Y88.517 E3.30518
G1 X54.050 Y89.212 E0.03748
G1 X96.688 Y131.850 E3.25218
G1 X95.994 Y131.850 E0.03748
G1 X54.050 Y89.906 E3.19917
