; generated by Slic3r 1.2.9 on 2016-10-13 at 09:13:25

; external perimeters extrusion width = 0.40mm
; perimeters extrusion width = 0.56mm
; infill extrusion width = 0.56mm
; solid infill extrusion width = 0.56mm
; top infill extrusion width = 0.25mm

M107
G28 ; home all axes
G1 Z5 F5000 ; lift nozzle

G21 ; set units to millimeters
G90 ; use absolute coordinates
M83 ; use relative distances for extrusion
G1 E-3.00000 F1200.00000
G1 Z0.275 F7800.000
G1 X49.296 Y60.955 F7800.000
G1 E3.00000 F1200.00000
G1 X52.500 Y60.109 E0.17858 F1080.000
G1 X142.500 Y60.109 E4.85007
G1 X144.735 Y60.506 E0.12233
G1 X146.697 Y61.648 E0.12233 F1080.000
G1 X148.145 Y63.396 E0.12233
G1 X148.872 Y65.365 E0.11312
G1 X153.872 Y91.165 E1.41622
G1 X153.991 Y92.400 E0.06686
G1 X153.991 Y128.400 E1.94003
G1 X153.594 Y130.635 E0.12233
G1 X152.452 Y132.597 E0.12233
G1 X150.704 Y134.045 E0.12233
G1 X148.312 Y134.840 E0.13583
G1 X108.662 Y139.840 E2.15365
G1 X107.850 Y139.891 E0.04385
G1 X94.350 Y139.891 E0.72751
G1 X93.580 Y139.845 E0.04157
G1 X51.730 Y134.845 E2.27132
G1 X49.558 Y134.186 E0.12233
G1 X47.746 Y132.819 E0.12233
G1 X46.515 Y130.912 E0.12233
G1 X46.009 Y128.400 E0.13807
G1 X46.009 Y66.600 E3.33038
G1 X46.406 Y64.365 E0.12233
G1 X47.548 Y62.403 E0.12233
G1 X49.250 Y60.993 E0.11909
G1 X51.178 Y63.409 F7800.000
G1 X143.822 Y63.409 E4.99255 F1080.000
G1 X145.691 Y65.278 E0.14248
G1 X145.691 Y85.972 E1.11521 F1080.000
G1 X145.766 Y86.153 E0.01053
G1 X150.206 Y90.592 E0.33833
G1 X150.691 Y91.765 E0.06842
G1 X150.691 Y129.722 E2.04548
G1 X148.822 Y131.591 E0.14248
G1 X114.278 Y131.591 E1.86158
G1 X114.097 Y131.666 E0.01053
G1 X109.658 Y136.106 E0.33833
G1 X108.485 Y136.591 E0.06842
G1 X93.715 Y136.591 E0.79593
G1 X92.542 Y136.106 E0.06842
G1 X88.103 Y131.666 E0.33833
G1 X87.922 Y131.591 E0.01053
G1 X51.178 Y131.591 E1.98014
G1 X49.309 Y129.722 E0.14248
G1 X49.309 Y65.278 E3.47286
G1 X51.136 Y63.451 E0.13924
G1 X51.381 Y63.900 F7800.000
G1 X143.619 Y63.900 E4.97063 F1080.000
G1 X145.200 Y65.481 E0.12056 F1080.000
G1 X145.200 Y86.176 E1.11521
G1 X145.275 Y86.356 E0.01053
G1 X149.789 Y90.870 E0.34403
G1 X150.200 Y91.863 E0.05789
G1 X150.200 Y129.519 E2.02925
G1 X148.619 Y131.100 E0.12056
G1 X114.074 Y131.100 E1.86158
G1 X113.894 Y131.175 E0.01053
G1 X109.380 Y135.689 E0.34403
G1 X108.387 Y136.100 E0.05789
G1 X93.813 Y136.100 E0.78540
G1 X92.820 Y135.689 E0.05789
G1 X88.306 Y131.175 E0.34403
G1 X88.126 Y131.100 E0.01053
G1 X51.381 Y131.100 E1.98014
G1 X49.800 Y129.519 E0.12056
G1 X49.800 Y65.481 E3.45094
G1 X51.339 Y63.942 E0.11732
G1 X51.585 Y64.391 F7800.000
G1 X143.415 Y64.391 E4.94871 F1080.000
G1 X144.709 Y65.685 E0.09864
G1 X144.709 Y86.379 E1.11521 F1080.000
G1 X144.784 Y86.560 E0.01053
G1 X149.373 Y91.148 E0.34973
G1 X149.709 Y91.961 E0.04737
G1 X149.709 Y129.315 E2.01303
G1 X148.415 Y130.609 E0.09864
G1 X113.871 Y130.609 E1.86158
G1 X113.690 Y130.684 E0.01053
G1 X109.102 Y135.273 E0.34973
G1 X108.289 Y135.609 E0.04737
G1 X93.911 Y135.609 E0.77488
G1 X93.098 Y135.273 E0.04737
G1 X88.510 Y130.684 E0.34973
G1 X88.329 Y130.609 E0.01053
G1 X51.585 Y130.609 E1.98014
G1 X50.291 Y129.315 E0.09864
G1 X50.291 Y65.685 E3.42902
G1 X51.542 Y64.433 E0.09540
G1 X51.788 Y64.882 F7800.000
G1 X143.212 Y64.882 E4.92679 F1080.000
G1 X144.218 Y65.888 E0.07672 F1080.000
G1 X144.218 Y86.582 E1.11521
G1 X144.293 Y86.763 E0.01053
G1 X148.957 Y91.427 E0.35542
G1 X149.218 Y92.058 E0.03684
G1 X149.218 Y129.112 E1.99681
G1 X148.212 Y130.118 E0.07672
G1 X113.668 Y130.118 E1.86158
G1 X113.487 Y130.193 E0.01053
G1 X108.823 Y134.857 E0.35542
G1 X108.192 Y135.118 E0.03684
G1 X94.008 Y135.118 E0.76435
G1 X93.377 Y134.857 E0.03684
G1 X88.713 Y130.193 E0.35542
G1 X88.532 Y130.118 E0.01053
G1 X51.788 Y130.118 E1.98014
G1 X50.782 Y129.112 E0.07672
G1 X50.782 Y65.888 E3.40710
G1 X51.746 Y64.924 E0.07348
G1 X51.992 Y65.373 F7800.000
G1 X143.008 Y65.373 E4.90487 F1080.000
G1 X143.727 Y66.092 E0.05480
G1 X143.727 Y86.786 E1.11521 F1080.000
G1 X143.802 Y86.966 E0.01053
G1 X148.541 Y91.705 E0.36112
G1 X148.727 Y92.156 E0.02632
G1 X148.727 Y128.908 E1.98059
G1 X148.008 Y129.627 E0.05480
G1 X113.464 Y129.627 E1.86158
G1 X113.284 Y129.702 E0.01053
G1 X108.545 Y134.441 E0.36112
G1 X108.094 Y134.627 E0.02632
G1 X94.106 Y134.627 E0.75383
G1 X93.655 Y134.441 E0.02632
G1 X88.916 Y129.702 E0.36112
G1 X88.736 Y129.627 E0.01053
G1 X51.992 Y129.627 E1.98014
G1 X51.273 Y128.908 E0.05480
G1 X51.273 Y66.092 E3.38518
G1 X51.949 Y65.415 E0.05156
G1 X52.195 Y65.864 F7800.000
G1 X142.805 Y65.864 E4.88295 F1080.000
G1 X143.236 Y66.295 E0.03288 F1080.000
G1 X143.236 Y86.989 E1.11521
G1 X143.311 Y87.170 E0.01053
G1 X148.124 Y91.983 E0.36682
G1 X148.236 Y92.254 E0.01579
G1 X148.236 Y128.705 E1.96436
G1 X147.805 Y129.136 E0.03288
G1 X113.261 Y129.136 E1.86158
G1 X113.080 Y129.211 E0.01053
G1 X108.267 Y134.024 E0.36682
G1 X107.996 Y134.136 E0.01579
G1 X94.204 Y134.136 E0.74330
G1 X93.933 Y134.024 E0.01579
G1 X89.120 Y129.211 E0.36682
G1 X88.939 Y129.136 E0.01053
G1 X52.195 Y129.136 E1.98014
G1 X51.764 Y128.705 E0.03288
G1 X51.764 Y66.295 E3.36326
G1 X52.153 Y65.906 E0.02965
G1 X52.398 Y66.355 F7800.000
G1 X142.602 Y66.355 E4.86103 F1080.000
G1 X142.745 Y66.498 E0.01096
G1 X142.745 Y87.193 E1.11521
G1 X142.820 Y87.373 E0.01053
G1 X147.708 Y92.261 E0.37251
G1 X147.745 Y92.351 E0.00526
G1 X147.745 Y128.502 E1.94814
G1 X147.602 Y128.645 E0.01096
G1 X113.057 Y128.645 E1.86158
G1 X112.877 Y128.720 E0.01053
G1 X107.989 Y133.608 E0.37251
G1 X107.899 Y133.645 E0.00526
G1 X94.301 Y133.645 E0.73277
G1 X94.211 Y133.608 E0.00526
G1 X89.323 Y128.720 E0.37251
G1 X89.143 Y128.645 E0.01053
G1 X52.398 Y128.645 E1.98014
G1 X52.255 Y128.502 E0.01096
G1 X52.255 Y66.498 E3.34134
G1 X52.356 Y66.397 E0.00773
G1 E-3.00000 F1200.00000
G1 X147.225 Y128.125 F7800.000
G1 E3.00000 F1200.00000
G1 X112.736 Y128.125 E1.85860 F324.000
G1 X107.736 Y133.125 E0.38106
G1 X94.464 Y133.125 E0.71523
G1 X89.464 Y128.125 E0.38106
G1 X52.775 Y128.125 E1.97715
G1 X52.775 Y66.875 E3.30074
G1 X142.225 Y66.875 E4.82043
G1 X142.225 Y87.514 E1.11222
G1 X147.225 Y92.514 E0.38106
G1 X147.225 Y128.065 E1.91584
G1 X146.879 Y127.925 F7800.000
G1 X146.734 Y127.634 F7800.000
G1 X112.533 Y127.634 E1.84310 F540.000
G1 X107.533 Y132.634 E0.38106
G1 X94.667 Y132.634 E0.69331
G1 X89.667 Y127.634 E0.38106
G1 X53.266 Y127.634 E1.96165
G1 X53.266 Y67.366 E3.24783
G1 X141.734 Y67.366 E4.76752
G1 X141.734 Y87.717 E1.09673
G1 X146.734 Y92.717 E0.38106
G1 X146.734 Y127.574 E1.87842
G1 X146.243 Y127.143 F7800.000
G1 X112.329 Y127.143 E1.82760 F540.000
G1 X107.329 Y132.143 E0.38106
G1 X94.871 Y132.143 E0.67140
G1 X89.871 Y127.143 E0.38106
G1 X53.757 Y127.143 E1.94616
G1 X53.757 Y67.857 E3.19491
G1 X141.243 Y67.857 E4.71460
G1 X141.243 Y87.921 E1.08123
G1 X146.243 Y92.921 E0.38106
G1 X146.243 Y127.083 E1.84100
G1 E-3.00000 F1200.00000
G1 X140.950 Y68.398 F7800.000
G1 E3.00000 F1200.00000
G1 X140.702 Y68.150 E0.01901 F900.000
G1 X140.004 Y68.150 E0.03777
G1 X140.950 Y69.096 E0.07243
G1 X140.950 Y69.794 E0.03777
G1 X139.306 Y68.150 E0.12584
G1 X138.609 Y68.150 E0.03777
G1 X140.950 Y70.491 E0.17926
G1 X140.950 Y71.189 E0.03777
G1 X137.911 Y68.150 E0.23267
G1 X137.214 Y68.150 E0.03777
G1 X140.950 Y71.886 E0.28609
G1 X140.950 Y72.584 E0.03777
G1 X136.516 Y68.150 E0.33950
G1 X135.818 Y68.150 E0.03777
G1 X140.950 Y73.282 E0.39292
G1 X140.950 Y73.979 E0.03777
G1 X135.121 Y68.150 E0.44633
G1 X134.423 Y68.150 E0.03777
G1 X140.950 Y74.677 E0.49975
G1 X140.950 Y75.375 E0.03777
G1 X133.725 Y68.150 E0.55316
G1 X133.028 Y68.150 E0.03777
G1 X140.950 Y76.072 E0.60658
G1 X140.950 Y76.770 E0.03777
G1 X132.330 Y68.150 E0.65999
G1 X131.633 Y68.150 E0.03777
G1 X140.950 Y77.467 E0.71341
G1 X140.950 Y78.165 E0.03777
G1 X130.935 Y68.150 E0.76682
G1 X130.237 Y68.150 E0.03777
G1 X140.950 Y78.863 E0.82024
G1 X140.950 Y79.560 E0.03777
G1 X129.540 Y68.150 E0.87365
G1 X128.842 Y68.150 E0.03777
G1 X140.950 Y80.258 E0.92707
G1 X140.950 Y80.955 E0.03777
G1 X128.145 Y68.150 E0.98048
G1 X127.447 Y68.150 E0.03777
G1 X140.950 Y81.653 E1.03390
G1 X140.950 Y82.351 E0.03777
G1 X126.749 Y68.150 E1.08731
G1 X126.052 Y68.150 E0.03777
G1 X140.950 Y83.048 E1.14073
G1 X140.950 Y83.746 E0.03777
G1 X125.354 Y68.150 E1.19415
G1 X124.657 Y68.150 E0.03777
G1 X140.950 Y84.443 E1.24756
G1 X140.950 Y85.141 E0.03777
G1 X123.959 Y68.150 E1.30098
G1 X123.261 Y68.150 E0.03777
G1 X140.950 Y85.839 E1.35439
G1 X140.950 Y86.536 E0.03777
G1 X122.564 Y68.150 E1.40781
G1 X121.866 Y68.150 E0.03777
G1 X140.950 Y87.234 E1.46122
G1 X140.950 Y87.932 E0.03777
G1 X121.168 Y68.150 E1.51464
G1 X120.471 Y68.150 E0.03777
G1 X145.950 Y93.629 E1.95089
G1 X145.950 Y94.327 E0.03777
G1 X119.773 Y68.150 E2.00431
G1 X119.076 Y68.150 E0.03777
G1 X145.950 Y95.024 E2.05772
G1 X145.950 Y95.722 E0.03777
G1 X118.378 Y68.150 E2.11114
G1 X117.680 Y68.150 E0.03777
G1 X145.950 Y96.420 E2.16455
G1 X145.950 Y97.117 E0.03777
G1 X116.983 Y68.150 E2.21797
G1 X116.285 Y68.150 E0.03777
G1 X145.950 Y97.815 E2.27138
G1 X145.950 Y98.512 E0.03777
G1 X115.588 Y68.150 E2.32480
G1 X114.890 Y68.150 E0.03777
G1 X145.950 Y99.210 E2.37822
G1 X145.950 Y99.908 E0.03777
G1 X114.192 Y68.150 E2.43163
G1 X113.495 Y68.150 E0.03777
G1 X145.950 Y100.605 E2.48505
G1 X145.950 Y101.303 E0.03777
G1 X112.797 Y68.150 E2.53846
G1 X112.100 Y68.150 E0.03777
G1 X145.950 Y102.000 E2.59188
G1 X145.950 Y102.698 E0.03777
G1 X111.402 Y68.150 E2.64529
G1 X110.704 Y68.150 E0.03777
G1 X145.950 Y103.396 E2.69871
G1 X145.950 Y104.093 E0.03777
G1 X110.007 Y68.150 E2.75212
G1 X109.309 Y68.150 E0.03777
G1 X145.950 Y104.791 E2.80554
G1 X145.950 Y105.489 E0.03777
G1 X108.611 Y68.150 E2.85895
G1 X107.914 Y68.150 E0.03777
G1 X145.950 Y106.186 E2.91237
G1 X145.950 Y106.884 E0.03777
G1 X107.216 Y68.150 E2.96578
G1 X106.519 Y68.150 E0.03777
G1 X145.950 Y107.581 E3.01920
G1 X145.950 Y108.279 E0.03777
G1 X105.821 Y68.150 E3.07261
G1 X105.123 Y68.150 E0.03777
G1 X145.950 Y108.977 E3.12603
G1 X145.950 Y109.674 E0.03777
G1 X104.426 Y68.150 E3.17944
G1 X103.728 Y68.150 E0.03777
G1 X145.950 Y110.372 E3.23286
G1 X145.950 Y111.069 E0.03777
G1 X103.031 Y68.150 E3.28627
G1 X102.333 Y68.150 E0.03777
G1 X145.950 Y111.767 E3.33969
G1 X145.950 Y112.465 E0.03777
G1 X101.635 Y68.150 E3.39310
G1 X100.938 Y68.150 E0.03777
G1 X145.950 Y113.162 E3.44652
G1 X145.950 Y113.860 E0.03777
G1 X100.240 Y68.150 E3.49993
G1 X99.543 Y68.150 E0.03777
G1 X145.950 Y114.557 E3.55335
G1 X145.950 Y115.255 E0.03777
G1 X98.845 Y68.150 E3.60676
G1 X98.147 Y68.150 E0.03777
G1 X145.950 Y115.953 E3.66018
G1 X145.950 Y116.650 E0.03777
G1 X97.450 Y68.150 E3.71359
G1 X96.752 Y68.150 E0.03777
G1 X145.950 Y117.348 E3.76701
G1 X145.950 Y118.046 E0.03777
G1 X96.054 Y68.150 E3.82042
G1 X95.357 Y68.150 E0.03777
G1 X145.950 Y118.743 E3.87384
G1 X145.950 Y119.441 E0.03777
G1 X94.659 Y68.150 E3.92725
G1 X93.962 Y68.150 E0.03777
G1 X145.950 Y120.138 E3.98067
G1 X145.950 Y120.836 E0.03777
G1 X93.264 Y68.150 E4.03408
G1 X92.566 Y68.150 E0.03777
G1 X145.950 Y121.534 E4.08750
G1 X145.950 Y122.231 E0.03777
G1 X91.869 Y68.150 E4.14091
G1 X91.171 Y68.150 E0.03777
G1 X145.950 Y122.929 E4.19433
G1 X145.950 Y123.626 E0.03777
G1 X90.474 Y68.150 E4.24774
G1 X89.776 Y68.150 E0.03777
G1 X145.950 Y124.324 E4.30116
G1 X145.950 Y125.022 E0.03777
G1 X89.078 Y68.150 E4.35457
G1 X88.381 Y68.150 E0.03777
G1 X145.950 Y125.719 E4.40799
G1 X145.950 Y126.417 E0.03777
G1 X87.683 Y68.150 E4.46140
G1 X86.986 Y68.150 E0.03777
G1 X145.685 Y126.850 E4.49456
G1 X144.988 Y126.850 E0.03777
G1 X86.288 Y68.150 E4.49456
G1 X85.590 Y68.150 E0.03777
G1 X144.290 Y126.850 E4.49456
G1 X143.592 Y126.850 E0.03777
G1 X84.893 Y68.150 E4.49456
G1 X84.195 Y68.150 E0.03777
G1 X142.895 Y126.850 E4.49456
G1 X142.197 Y126.850 E0.03777
G1 X83.497 Y68.150 E4.49456
G1 X82.800 Y68.150 E0.03777
G1 X141.500 Y126.850 E4.49456
G1 X140.802 Y126.850 E0.03777
G1 X82.102 Y68.150 E4.49456
G1 X81.405 Y68.150 E0.03777
G1 X140.104 Y126.850 E4.49456
G1 X139.407 Y126.850 E0.03777
G1 X80.707 Y68.150 E4.49456
G1 X80.009 Y68.150 E0.03777
G1 X138.709 Y126.850 E4.49456
G1 X138.012 Y126.850 E0.03777
G1 X79.312 Y68.150 E4.49456
G1 X78.614 Y68.150 E0.03777
G1 X137.314 Y126.850 E4.49456
G1 X136.616 Y126.850 E0.03777
G1 X77.917 Y68.150 E4.49456
G1 X77.219 Y68.150 E0.03777
G1 X135.919 Y126.850 E4.49456
G1 X135.221 Y126.850 E0.03777
G1 X76.521 Y68.150 E4.49456
G1 X75.824 Y68.150 E0.03777
G1 X134.524 Y126.850 E4.49456
G1 X133.826 Y126.850 E0.03777
G1 X75.126 Y68.150 E4.49456
G1 X74.429 Y68.150 E0.03777
G1 X133.128 Y126.850 E4.49456
G1 X132.431 Y126.850 E0.03777
G1 X73.731 Y68.150 E4.49456
G1 X73.033 Y68.150 E0.03777
G1 X131.733 Y126.850 E4.49456
G1 X131.035 Y126.850 E0.03777
G1 X72.336 Y68.150 E4.49456
G1 X71.638 Y68.150 E0.03777
G1 X130.338 Y126.850 E4.49456
G1 X129.640 Y126.850 E0.03777
G1 X70.940 Y68.150 E4.49456
G1 X70.243 Y68.150 E0.03777
G1 X128.943 Y126.850 E4.49456
G1 X128.245 Y126.850 E0.03777
G1 X69.545 Y68.150 E4.49456
G1 X68.848 Y68.150 E0.03777
G1 X127.547 Y126.850 E4.49456
G1 X126.850 Y126.850 E0.03777
G1 X68.150 Y68.150 E4.49456
G1 X67.452 Y68.150 E0.03777
G1 X126.152 Y126.850 E4.49456
G1 X125.455 Y126.850 E0.03777
G1 X66.755 Y68.150 E4.49456
G1 X66.057 Y68.150 E0.03777
G1 X124.757 Y126.850 E4.49456
G1 X124.059 Y126.850 E0.03777
G1 X65.360 Y68.150 E4.49456
G1 X64.662 Y68.150 E0.03777
G1 X123.362 Y126.850 E4.49456
G1 X122.664 Y126.850 E0.03777
G1 X63.964 Y68.150 E4.49456
G1 X63.267 Y68.150 E0.03777
G1 X121.967 Y126.850 E4.49456
G1 X121.269 Y126.850 E0.03777
G1 X62.569 Y68.150 E4.49456
G1 X61.872 Y68.150 E0.03777
G1 X120.571 Y126.850 E4.49456
G1 X119.874 Y126.850 E0.03777
G1 X61.174 Y68.150 E4.49456
G1 X60.476 Y68.150 E0.03777
G1 X119.176 Y126.850 E4.49456
G1 X118.478 Y126.850 E0.03777
G1 X59.779 Y68.150 E4.49456
G1 X59.081 Y68.150 E0.03777
G1 X117.781 Y126.850 E4.49456
G1 X117.083 Y126.850 E0.03777
G1 X58.384 Y68.150 E4.49456
G1 X57.686 Y68.150 E0.03777
G1 X116.386 Y126.850 E4.49456
G1 X115.688 Y126.850 E0.03777
G1 X56.988 Y68.150 E4.49456
G1 X56.291 Y68.150 E0.03777
G1 X114.990 Y126.850 E4.49456
G1 X114.293 Y126.850 E0.03777
G1 X55.593 Y68.150 E4.49456
G1 X54.895 Y68.150 E0.03777
G1 X113.595 Y126.850 E4.49456
G1 X112.898 Y126.850 E0.03777
G1 X54.198 Y68.150 E4.49456
G1 X54.050 Y68.700 E0.03083
G1 X112.234 Y126.884 E4.45510
G1 X111.886 Y127.233 E0.02671
G1 X54.050 Y69.398 E4.42839
G1 X54.050 Y70.095 E0.03777
G1 X111.537 Y127.582 E4.40168
G1 X111.188 Y127.931 E0.02671
G1 X54.050 Y70.793 E4.37497
G1 X54.050 Y71.490 E0.03777
G1 X110.839 Y128.280 E4.34826
G1 X110.490 Y128.628 E0.02671
G1 X54.050 Y72.188 E4.32156
G1 X54.050 Y72.886 E0.03777
G1 X110.142 Y128.977 E4.29485
G1 X109.793 Y129.326 E0.02671
G1 X54.050 Y73.583 E4.26814
G1 X54.050 Y74.281 E0.03777
G1 X109.444 Y129.675 E4.24143
G1 X109.095 Y130.024 E0.02671
G1 X54.050 Y74.979 E4.21473
G1 X54.050 Y75.676 E0.03777
G1 X108.746 Y130.372 E4.18802
G1 X108.398 Y130.721 E0.02671
G1 X54.050 Y76.374 E4.16131
G1 X54.050 Y77.071 E0.03777
G1 X108.049 Y131.070 E4.13460
G1 X107.700 Y131.419 E0.02671
G1 X54.050 Y77.769 E4.10790
G1 X54.050 Y78.467 E0.03777
G1 X107.351 Y131.768 E4.08119
G1 X106.736 Y131.850 E0.03361
G1 X54.050 Y79.164 E4.03407
G1 X54.050 Y79.862 E0.03777
G1 X106.038 Y131.850 E3.98066
G1 X105.341 Y131.850 E0.03777
G1 X54.050 Y80.559 E3.92724
G1 X54.050 Y81.257 E0.03777
G1 X104.643 Y131.850 E3.87383
G1 X103.945 Y131.850 E0.03777
G1 X54.050 Y81.955 E3.82041
G1 X54.050 Y82.652 E0.03777
G1 X103.248 Y131.850 E3.76700
G1 X102.550 Y131.850 E0.03777
G1 X54.050 Y83.350 E3.71358
G1 X54.050 Y84.047 E0.03777
G1 X101.853 Y131.850 E3.66017
G1 X101.155 Y131.850 E0.03777
G1 X54.050 Y84.745 E3.60675
G1 X54.050 Y85.443 E0.03777
G1 X100.457 Y131.850 E3.55334
G1 X99.760 Y131.850 E0.03777
G1 X54.050 Y86.140 E3.49992
G1 X54.050 Y86.838 E0.03777
G1 X99.062 Y131.850 E3.44651
G1 X98.364 Y131.850 E0.03777
G1 X54.050 Y87.536 E3.39309
G1 X54.050 Y88.233 E0.03777
G1 X97.667 Y131.850 E3.33968
G1 X96.969 Y131.850 E0.03777
G1 X54.050 Y88.931 E3.28626
G1 X54.050 Y89.628 E0.03777
G1 X96.272 Y131.850 E3.23285
G1 X95.574 Y131.850 E0.03777
G1 X54.050 Y90.326 E3.17943
G1 X54.050 Y91.024 E0.03777
