; generated by Slic3r 1.2.9 on 2017-01-20 at 09:39:44

; external perimeters extrusion width = 0.40mm
; perimeters extrusion width = 0.56mm
; infill extrusion width = 0.56mm
; solid infill extrusion width = 0.56mm
; top infill extrusion width = 0.25mm
; support material extrusion width = 0.40mm

M107
G28 ; home all axes
G1 Z5 F5000 ; lift nozzle

G21 ; set units to millimeters
G90 ; use absolute coordinates
M83 ; use relative distances for extrusion
G1 E-3.00000 F1200.00000
G1 Z0.275 F7800.000
G1 X62.879 Y67.640 F7800.000
G1 E3.00000 F1200.00000
G1 X63.471 Y67.170 E0.04077 F1080.000
G1 X64.380 Y66.566 E0.05880
G1 X65.043 Y66.201 E0.04077
G1 X66.040 Y65.757 E0.05880
G1 X66.754 Y65.509 E0.04077
G1 X67.811 Y65.239 E0.05880
G1 X68.558 Y65.114 E0.04079
G1 X69.631 Y65.024 E0.05804
G1 X130.369 Y65.024 E3.27313
G1 X131.443 Y65.114 E0.05807
G1 X132.189 Y65.239 E0.04077 F1080.000
G1 X133.246 Y65.509 E0.05880
G1 X133.960 Y65.757 E0.04077
G1 X134.957 Y66.201 E0.05880
G1 X135.620 Y66.566 E0.04078
G1 X136.529 Y67.170 E0.05879
G1 X137.122 Y67.641 E0.04080
G1 X137.916 Y68.388 E0.05877
G1 X138.421 Y68.951 E0.04077
G1 X139.079 Y69.822 E0.05880
G1 X139.482 Y70.461 E0.04077
G1 X139.985 Y71.430 E0.05881
G1 X140.276 Y72.128 E0.04077
G1 X140.610 Y73.167 E0.05879
G1 X140.780 Y73.904 E0.04077
G1 X140.934 Y74.984 E0.05880
G1 X140.989 Y76.117 E0.06111
G1 X140.989 Y123.883 E2.57412
G1 X140.934 Y125.016 E0.06111
G1 X140.780 Y126.096 E0.05880
G1 X140.610 Y126.833 E0.04077
G1 X140.276 Y127.872 E0.05880
G1 X139.985 Y128.570 E0.04076
G1 X139.482 Y129.539 E0.05881
G1 X139.079 Y130.178 E0.04077
G1 X138.421 Y131.049 E0.05880
G1 X137.915 Y131.612 E0.04078
G1 X137.121 Y132.360 E0.05879
G1 X136.529 Y132.830 E0.04076
G1 X135.620 Y133.434 E0.05880
G1 X134.957 Y133.799 E0.04077
G1 X133.960 Y134.243 E0.05880
G1 X133.245 Y134.491 E0.04080
G1 X132.189 Y134.761 E0.05877
G1 X131.442 Y134.886 E0.04079
G1 X130.369 Y134.976 E0.05805
G1 X69.631 Y134.976 E3.27313
G1 X68.557 Y134.886 E0.05807
G1 X67.811 Y134.761 E0.04077
G1 X66.754 Y134.491 E0.05880
G1 X66.040 Y134.243 E0.04077
G1 X65.043 Y133.799 E0.05880
G1 X64.380 Y133.434 E0.04078
G1 X63.471 Y132.830 E0.05879
G1 X62.879 Y132.359 E0.04079
G1 X62.084 Y131.612 E0.05878
G1 X61.579 Y131.049 E0.04077
G1 X60.921 Y130.178 E0.05880
G1 X60.517 Y129.539 E0.04077
G1 X60.015 Y128.570 E0.05879
G1 X59.734 Y127.896 E0.03938
G1 X59.390 Y126.833 E0.06018
G1 X59.220 Y126.096 E0.04078
G1 X59.066 Y125.016 E0.05878
G1 X59.021 Y124.260 E0.04079
G1 X59.011 Y76.117 E2.59444
G1 X59.066 Y74.984 E0.06112
G1 X59.220 Y73.904 E0.05879
G1 X59.390 Y73.166 E0.04079
G1 X59.724 Y72.128 E0.05878
G1 X60.015 Y71.429 E0.04078
G1 X60.517 Y70.461 E0.05879
G1 X60.921 Y69.821 E0.04078
G1 X61.579 Y68.951 E0.05878
G1 X62.085 Y68.388 E0.04077
G1 X62.835 Y67.681 E0.05556
G1 E-3.00000 F1200.00000
G1 X64.931 Y70.224 F7800.000
G1 E3.00000 F1200.00000
G1 X65.628 Y69.670 E0.04801 F1080.000
G1 X65.852 Y69.521 E0.01448
G1 X66.750 Y69.027 E0.05525
G1 X66.996 Y68.918 E0.01448
G1 X67.964 Y68.582 E0.05525
G1 X68.225 Y68.515 E0.01448
G1 X69.236 Y68.345 E0.05525
G1 X69.504 Y68.323 E0.01447
G1 X70.368 Y68.325 E0.04660
G1 X70.796 Y68.349 E0.02311 F1080.000
G1 X71.807 Y68.523 E0.05525
G1 X72.067 Y68.590 E0.01447
G1 X73.095 Y68.958 E0.05885
G1 X85.792 Y74.671 E0.75028
G1 X86.754 Y75.025 E0.05525
G1 X87.696 Y75.230 E0.05195
G1 X88.789 Y75.309 E0.05908
G1 X111.211 Y75.309 E1.20828
G1 X112.316 Y75.229 E0.05973
G1 X113.239 Y75.028 E0.05092
G1 X114.216 Y74.668 E0.05609
G1 X126.905 Y68.958 E0.74984
G1 X127.933 Y68.590 E0.05885
G1 X128.193 Y68.523 E0.01448
G1 X129.204 Y68.349 E0.05525
G1 X129.471 Y68.326 E0.01448
G1 X130.497 Y68.323 E0.05525
G1 X130.764 Y68.345 E0.01448
G1 X131.775 Y68.515 E0.05525
G1 X132.036 Y68.582 E0.01448
G1 X133.004 Y68.918 E0.05525
G1 X133.250 Y69.027 E0.01448
G1 X134.007 Y69.444 E0.04661
G1 X134.372 Y69.670 E0.02310
G1 X135.175 Y70.308 E0.05526
G1 X135.370 Y70.492 E0.01447
G1 X136.055 Y71.255 E0.05524
G1 X136.217 Y71.469 E0.01448
G1 X136.764 Y72.336 E0.05525
G1 X136.888 Y72.575 E0.01448
G1 X137.221 Y73.373 E0.04661
G1 X137.364 Y73.777 E0.02310
G1 X137.595 Y74.776 E0.05524
G1 X137.633 Y75.042 E0.01449
G1 X137.692 Y76.065 E0.05525
G1 X137.685 Y76.334 E0.01448
G1 X137.573 Y77.353 E0.05524
G1 X137.521 Y77.616 E0.01449
G1 X137.215 Y78.665 E0.05885
G1 X132.171 Y91.963 E0.76648
G1 X131.892 Y92.863 E0.05076
G1 X131.746 Y93.669 E0.04411
G1 X131.691 Y94.579 E0.04916
G1 X131.691 Y105.421 E0.58425
G1 X131.750 Y106.370 E0.05124
G1 X131.898 Y107.167 E0.04368
G1 X132.159 Y108.005 E0.04731
G1 X137.215 Y121.335 E0.76830
G1 X137.521 Y122.384 E0.05886
G1 X137.573 Y122.647 E0.01448
G1 X137.685 Y123.666 E0.05525
G1 X137.692 Y123.935 E0.01448
G1 X137.633 Y124.958 E0.05524
G1 X137.595 Y125.224 E0.01449
G1 X137.364 Y126.223 E0.05525
G1 X137.282 Y126.479 E0.01448
G1 X136.888 Y127.425 E0.05524
G1 X136.764 Y127.664 E0.01449
G1 X136.217 Y128.531 E0.05525
G1 X136.055 Y128.745 E0.01448
G1 X135.370 Y129.508 E0.05525
G1 X135.174 Y129.692 E0.01448
G1 X134.372 Y130.330 E0.05524
G1 X134.148 Y130.478 E0.01449
G1 X133.250 Y130.972 E0.05524
G1 X133.004 Y131.082 E0.01449
G1 X132.187 Y131.366 E0.04662
G1 X131.775 Y131.485 E0.02310
G1 X130.764 Y131.655 E0.05525
G1 X130.496 Y131.677 E0.01448
G1 X129.632 Y131.675 E0.04660
G1 X129.204 Y131.651 E0.02310
G1 X128.193 Y131.477 E0.05524
G1 X127.871 Y131.393 E0.01797
G1 X127.735 Y131.415 E0.00738
G1 X114.236 Y125.341 E0.79773
G1 X113.237 Y124.973 E0.05737
G1 X112.307 Y124.771 E0.05132
G1 X111.211 Y124.691 E0.05923
G1 X88.775 Y124.691 E1.20907
G1 X87.691 Y124.770 E0.05855
G1 X86.762 Y124.972 E0.05121
G1 X85.796 Y125.327 E0.05547
G1 X73.095 Y131.042 E0.75056
G1 X72.067 Y131.410 E0.05885
G1 X71.807 Y131.477 E0.01448
G1 X70.796 Y131.651 E0.05525
G1 X70.529 Y131.674 E0.01448
G1 X69.504 Y131.677 E0.05524
G1 X69.236 Y131.655 E0.01449
G1 X68.225 Y131.485 E0.05523
G1 X67.964 Y131.418 E0.01449
G1 X66.996 Y131.082 E0.05525
G1 X66.750 Y130.973 E0.01448
G1 X65.993 Y130.556 E0.04661
G1 X65.628 Y130.330 E0.02310
G1 X64.825 Y129.692 E0.05525
G1 X64.630 Y129.508 E0.01448
G1 X64.052 Y128.864 E0.04660
G1 X63.783 Y128.531 E0.02310
G1 X63.236 Y127.664 E0.05525
G1 X63.112 Y127.425 E0.01448
G1 X62.718 Y126.479 E0.05525
G1 X62.636 Y126.223 E0.01448
G1 X62.441 Y125.380 E0.04660
G1 X62.367 Y124.958 E0.02310
G1 X62.308 Y123.935 E0.05525
G1 X62.315 Y123.666 E0.01448
G1 X62.427 Y122.647 E0.05524
G1 X62.479 Y122.383 E0.01448
G1 X62.785 Y121.335 E0.05886
G1 X67.841 Y108.004 E0.76835
G1 X68.099 Y107.177 E0.04667
G1 X68.250 Y106.359 E0.04481
G1 X68.309 Y105.421 E0.05068
G1 X68.309 Y94.566 E0.58497
G1 X68.255 Y93.666 E0.04856
G1 X68.109 Y92.862 E0.04405
G1 X67.836 Y91.981 E0.04968
G1 X62.785 Y78.665 E0.76751
G1 X62.479 Y77.616 E0.05886
G1 X62.427 Y77.353 E0.01448
G1 X62.315 Y76.334 E0.05525
G1 X62.308 Y76.065 E0.01448
G1 X62.358 Y75.202 E0.04660
G1 X62.405 Y74.776 E0.02310
G1 X62.636 Y73.777 E0.05525
G1 X62.718 Y73.521 E0.01448
G1 X63.112 Y72.575 E0.05525
G1 X63.236 Y72.336 E0.01448
G1 X63.698 Y71.605 E0.04660
G1 X63.945 Y71.255 E0.02310
G1 X64.630 Y70.492 E0.05525
G1 X64.884 Y70.262 E0.01847
G1 X65.236 Y70.609 F7800.000
G1 X65.918 Y70.068 E0.04689 F1080.000
G1 X66.107 Y69.942 E0.01225
G1 X66.969 Y69.468 E0.05302
G1 X67.177 Y69.375 E0.01225
G1 X68.106 Y69.052 E0.05302
G1 X68.326 Y68.996 E0.01225
G1 X69.297 Y68.833 E0.05303
G1 X69.523 Y68.814 E0.01225
G1 X70.507 Y68.817 E0.05302 F1080.000
G1 X70.734 Y68.836 E0.01225
G1 X71.703 Y69.003 E0.05302
G1 X71.923 Y69.060 E0.01225
G1 X72.797 Y69.368 E0.04995
G1 X85.606 Y75.126 E0.75677
G1 X86.617 Y75.498 E0.05805
G1 X87.627 Y75.717 E0.05569
G1 X88.772 Y75.800 E0.06188
G1 X111.228 Y75.800 E1.21015
G1 X112.351 Y75.721 E0.06067
G1 X113.376 Y75.501 E0.05651
G1 X114.402 Y75.123 E0.05889
G1 X127.097 Y69.410 E0.75022
G1 X128.077 Y69.060 E0.05607
G1 X128.297 Y69.003 E0.01225
G1 X129.267 Y68.836 E0.05302
G1 X129.493 Y68.817 E0.01225
G1 X130.477 Y68.814 E0.05302
G1 X130.703 Y68.833 E0.01225
G1 X131.536 Y68.973 E0.04549
G1 X131.894 Y69.052 E0.01976
G1 X132.823 Y69.375 E0.05302
G1 X133.031 Y69.468 E0.01225
G1 X133.771 Y69.874 E0.04549
G1 X134.082 Y70.068 E0.01976
G1 X134.853 Y70.680 E0.05303
G1 X135.019 Y70.835 E0.01225
G1 X135.676 Y71.568 E0.05301
G1 X135.813 Y71.749 E0.01225
G1 X136.338 Y72.581 E0.05302
G1 X136.443 Y72.783 E0.01225
G1 X136.767 Y73.562 E0.04549
G1 X136.891 Y73.907 E0.01976
G1 X137.111 Y74.866 E0.05301
G1 X137.144 Y75.091 E0.01226
G1 X137.201 Y76.073 E0.05302
G1 X137.195 Y76.301 E0.01226
G1 X137.087 Y77.278 E0.05301
G1 X137.043 Y77.501 E0.01226
G1 X136.753 Y78.501 E0.05607
G1 X131.707 Y91.803 E0.76672
G1 X131.414 Y92.745 E0.05316
G1 X131.258 Y93.609 E0.04732
G1 X131.200 Y94.564 E0.05156
G1 X131.200 Y105.436 E0.58585
G1 X131.262 Y106.429 E0.05364
G1 X131.420 Y107.284 E0.04688
G1 X131.695 Y108.165 E0.04971
G1 X136.752 Y121.499 E0.76854
G1 X137.043 Y122.499 E0.05608
G1 X137.087 Y122.722 E0.01225
G1 X137.195 Y123.700 E0.05302
G1 X137.201 Y123.927 E0.01225
G1 X137.144 Y124.909 E0.05301
G1 X137.111 Y125.134 E0.01226
G1 X136.891 Y126.093 E0.05302
G1 X136.821 Y126.309 E0.01225
G1 X136.443 Y127.217 E0.05301
G1 X136.338 Y127.419 E0.01226
G1 X135.813 Y128.251 E0.05302
G1 X135.676 Y128.432 E0.01225
G1 X135.018 Y129.165 E0.05302
G1 X134.853 Y129.321 E0.01225
G1 X134.083 Y129.932 E0.05301
G1 X133.893 Y130.058 E0.01226
G1 X133.031 Y130.532 E0.05301
G1 X132.823 Y130.625 E0.01226
G1 X132.026 Y130.902 E0.04550
G1 X131.674 Y131.004 E0.01976
G1 X130.703 Y131.167 E0.05302
G1 X130.477 Y131.185 E0.01225
G1 X129.633 Y131.184 E0.04549
G1 X129.266 Y131.164 E0.01976
G1 X128.297 Y130.997 E0.05301
G1 X127.833 Y130.854 E0.02617
G1 X127.715 Y130.868 E0.00638
G1 X114.422 Y124.886 E0.78556
G1 X113.374 Y124.500 E0.06017
G1 X112.376 Y124.283 E0.05505
G1 X111.228 Y124.200 E0.06203
G1 X88.757 Y124.200 E1.21094
G1 X87.622 Y124.282 E0.06135
G1 X86.625 Y124.499 E0.05495
G1 X85.611 Y124.872 E0.05827
G1 X72.903 Y130.590 E0.75094
G1 X71.923 Y130.940 E0.05607
G1 X71.703 Y130.997 E0.01226
G1 X70.733 Y131.164 E0.05302
G1 X70.507 Y131.183 E0.01225
G1 X69.523 Y131.186 E0.05301
G1 X69.297 Y131.167 E0.01226
G1 X68.326 Y131.004 E0.05301
G1 X68.106 Y130.948 E0.01226
G1 X67.177 Y130.625 E0.05302
G1 X66.969 Y130.532 E0.01226
G1 X66.229 Y130.126 E0.04549
G1 X65.918 Y129.932 E0.01977
G1 X65.147 Y129.320 E0.05302
G1 X64.981 Y129.165 E0.01225
G1 X64.324 Y128.432 E0.05302
G1 X64.187 Y128.251 E0.01225
G1 X63.662 Y127.419 E0.05302
G1 X63.557 Y127.217 E0.01225
G1 X63.179 Y126.309 E0.05302
G1 X63.109 Y126.093 E0.01225
G1 X62.920 Y125.270 E0.04549
G1 X62.856 Y124.909 E0.01976
G1 X62.799 Y123.927 E0.05302
G1 X62.805 Y123.699 E0.01225
G1 X62.913 Y122.722 E0.05302
G1 X62.957 Y122.499 E0.01225
G1 X63.248 Y121.499 E0.05607
G1 X68.305 Y108.164 E0.76859
G1 X68.576 Y107.295 E0.04907
G1 X68.739 Y106.419 E0.04801
G1 X68.800 Y105.436 E0.05308
G1 X68.800 Y94.551 E0.58657
G1 X68.743 Y93.607 E0.05096
G1 X68.587 Y92.744 E0.04725
G1 X68.300 Y91.821 E0.05208
G1 X63.248 Y78.501 E0.76775
G1 X62.957 Y77.501 E0.05608
G1 X62.913 Y77.278 E0.01225
G1 X62.805 Y76.300 E0.05302
G1 X62.799 Y76.073 E0.01225
G1 X62.848 Y75.230 E0.04549
G1 X62.889 Y74.866 E0.01976
G1 X63.109 Y73.907 E0.05302
G1 X63.179 Y73.691 E0.01225
G1 X63.557 Y72.783 E0.05302
G1 X63.662 Y72.581 E0.01225
G1 X64.113 Y71.867 E0.04549
G1 X64.324 Y71.568 E0.01976
G1 X64.982 Y70.835 E0.05302
G1 X65.189 Y70.646 E0.01514
G1 X65.541 Y70.993 F7800.000
G1 X66.207 Y70.465 E0.04578 F1080.000
G1 X66.362 Y70.362 E0.01002
G1 X67.187 Y69.908 E0.05079
G1 X67.357 Y69.832 E0.01003
G1 X68.248 Y69.523 E0.05079
G1 X68.428 Y69.477 E0.01002
G1 X69.357 Y69.321 E0.05080
G1 X69.543 Y69.306 E0.01002
G1 X70.366 Y69.307 E0.04438
G1 X70.671 Y69.324 E0.01643 F1080.000
G1 X71.600 Y69.483 E0.05079
G1 X71.779 Y69.530 E0.01002
G1 X72.711 Y69.862 E0.05329
G1 X85.420 Y75.581 E0.75103
G1 X86.480 Y75.970 E0.06085
G1 X87.558 Y76.204 E0.05942
G1 X88.755 Y76.291 E0.06468
G1 X111.245 Y76.291 E1.21201
G1 X112.420 Y76.208 E0.06347
G1 X113.513 Y75.974 E0.06025
G1 X114.588 Y75.578 E0.06169
G1 X127.289 Y69.862 E0.75059
G1 X128.221 Y69.530 E0.05329
G1 X128.401 Y69.483 E0.01002
G1 X129.329 Y69.324 E0.05079
G1 X129.515 Y69.307 E0.01002
G1 X130.457 Y69.306 E0.05079
G1 X130.643 Y69.321 E0.01002
G1 X131.572 Y69.477 E0.05079
G1 X131.752 Y69.523 E0.01003
G1 X132.643 Y69.832 E0.05079
G1 X132.813 Y69.908 E0.01003
G1 X133.534 Y70.305 E0.04438
G1 X133.793 Y70.465 E0.01642
G1 X134.532 Y71.051 E0.05080
G1 X134.667 Y71.179 E0.01002
G1 X135.296 Y71.880 E0.05079
G1 X135.409 Y72.028 E0.01002
G1 X135.912 Y72.825 E0.05079
G1 X135.997 Y72.991 E0.01003
G1 X136.360 Y73.861 E0.05079
G1 X136.417 Y74.038 E0.01002
G1 X136.628 Y74.956 E0.05078
G1 X136.655 Y75.140 E0.01003
G1 X136.710 Y76.081 E0.05079
G1 X136.705 Y76.267 E0.01003
G1 X136.601 Y77.204 E0.05078
G1 X136.565 Y77.386 E0.01003
G1 X136.290 Y78.336 E0.05329
G1 X131.242 Y91.643 E0.76696
G1 X130.937 Y92.628 E0.05556
G1 X130.769 Y93.550 E0.05052
G1 X130.709 Y94.550 E0.05396
G1 X130.709 Y105.450 E0.58745
G1 X130.774 Y106.488 E0.05604
G1 X130.943 Y107.402 E0.05008
G1 X131.231 Y108.325 E0.05211
G1 X136.290 Y121.664 E0.76878
G1 X136.565 Y122.614 E0.05329
G1 X136.601 Y122.796 E0.01002
G1 X136.705 Y123.733 E0.05079
G1 X136.710 Y123.919 E0.01002
G1 X136.655 Y124.860 E0.05078
G1 X136.628 Y125.044 E0.01003
G1 X136.417 Y125.962 E0.05079
G1 X136.360 Y126.139 E0.01003
G1 X135.997 Y127.009 E0.05078
G1 X135.912 Y127.175 E0.01003
G1 X135.409 Y127.971 E0.05079
G1 X135.296 Y128.120 E0.01003
G1 X134.667 Y128.821 E0.05079
G1 X134.531 Y128.949 E0.01002
G1 X133.793 Y129.535 E0.05079
G1 X133.638 Y129.638 E0.01003
G1 X132.813 Y130.092 E0.05079
G1 X132.643 Y130.168 E0.01003
G1 X131.752 Y130.477 E0.05080
G1 X131.572 Y130.523 E0.01002
G1 X130.760 Y130.660 E0.04438
G1 X130.457 Y130.694 E0.01643
G1 X129.515 Y130.692 E0.05079
G1 X129.329 Y130.676 E0.01002
G1 X128.401 Y130.517 E0.05078
G1 X127.769 Y130.311 E0.03581
G1 X127.694 Y130.320 E0.00408
G1 X114.608 Y124.431 E0.77330
G1 X113.511 Y124.027 E0.06297
G1 X112.411 Y123.791 E0.06065
G1 X111.245 Y123.709 E0.06297
G1 X88.740 Y123.709 E1.21280
G1 X87.553 Y123.795 E0.06415
G1 X86.489 Y124.026 E0.05868
G1 X85.425 Y124.417 E0.06107
G1 X72.711 Y130.138 E0.75131
G1 X71.780 Y130.470 E0.05329
G1 X71.599 Y130.517 E0.01003
G1 X70.671 Y130.676 E0.05079
G1 X70.485 Y130.692 E0.01002
G1 X69.543 Y130.694 E0.05078
G1 X69.357 Y130.679 E0.01003
G1 X68.428 Y130.523 E0.05078
G1 X68.248 Y130.477 E0.01003
G1 X67.357 Y130.168 E0.05079
G1 X67.187 Y130.092 E0.01003
G1 X66.466 Y129.695 E0.04438
G1 X66.207 Y129.535 E0.01642
G1 X65.469 Y128.949 E0.05079
G1 X65.333 Y128.821 E0.01002
G1 X64.783 Y128.208 E0.04437
G1 X64.591 Y127.972 E0.01642
G1 X64.088 Y127.174 E0.05079
G1 X64.003 Y127.009 E0.01002
G1 X63.640 Y126.139 E0.05079
G1 X63.583 Y125.962 E0.01002
G1 X63.398 Y125.160 E0.04438
G1 X63.345 Y124.860 E0.01642
G1 X63.290 Y123.919 E0.05079
G1 X63.295 Y123.733 E0.01002
G1 X63.399 Y122.796 E0.05079
G1 X63.435 Y122.614 E0.01003
G1 X63.710 Y121.664 E0.05329
G1 X68.770 Y108.324 E0.76884
G1 X69.054 Y107.412 E0.05147
G1 X69.227 Y106.478 E0.05122
G1 X69.291 Y105.450 E0.05548
G1 X69.291 Y94.536 E0.58817
G1 X69.231 Y93.548 E0.05336
G1 X69.064 Y92.627 E0.05045
G1 X68.765 Y91.661 E0.05448
G1 X63.710 Y78.336 E0.76800
G1 X63.435 Y77.386 E0.05329
G1 X63.399 Y77.204 E0.01002
G1 X63.295 Y76.267 E0.05079
G1 X63.290 Y76.081 E0.01002
G1 X63.338 Y75.259 E0.04438
G1 X63.372 Y74.956 E0.01642
G1 X63.583 Y74.038 E0.05080
G1 X63.640 Y73.861 E0.01002
G1 X64.003 Y72.990 E0.05079
G1 X64.088 Y72.825 E0.01002
G1 X64.528 Y72.129 E0.04438
G1 X64.704 Y71.880 E0.01643
G1 X65.333 Y71.179 E0.05079
G1 X65.494 Y71.031 E0.01180
G1 X65.847 Y71.378 F7800.000
G1 X66.616 Y70.782 E0.05244 F1080.000
G1 X67.538 Y70.289 E0.05634
G1 X68.529 Y69.957 E0.05634
G1 X69.562 Y69.797 E0.05634
G1 X70.608 Y69.811 E0.05634 F1080.000
G1 X71.496 Y69.964 E0.04857
G1 X72.452 Y70.288 E0.05438
G1 X85.234 Y76.036 E0.75530
G1 X86.343 Y76.443 E0.06365
G1 X87.488 Y76.692 E0.06316
G1 X88.737 Y76.782 E0.06748
G1 X111.263 Y76.782 E1.21388
G1 X112.489 Y76.696 E0.06627
G1 X113.650 Y76.446 E0.06398
G1 X114.773 Y76.033 E0.06449
