; generated by Slic3r 1.2.9 on 2017-01-23 at 09:05:46

; external perimeters extrusion width = 0.40mm
; perimeters extrusion width = 0.56mm
; infill extrusion width = 0.56mm
; solid infill extrusion width = 0.56mm
; top infill extrusion width = 0.25mm
; support material extrusion width = 0.40mm

M107
G28 ; home all axes
G1 Z5 F5000 ; lift nozzle

G21 ; set units to millimeters
G90 ; use absolute coordinates
M83 ; use relative distances for extrusion
G1 E-3.00000 F1200.00000
G1 Z0.275 F7800.000
G1 X62.879 Y67.640 F7800.000
G1 E3.00000 F1200.00000
G1 X63.472 Y67.169 E0.04250 F1080.000
G1 X64.380 Y66.566 E0.06122
G1 X65.043 Y66.201 E0.04249
G1 X66.040 Y65.757 E0.06123
G1 X66.754 Y65.509 E0.04246
G1 X67.811 Y65.239 E0.06125
G1 X68.559 Y65.113 E0.04258
G1 X69.631 Y65.024 E0.06038
G1 X130.369 Y65.024 E3.40952
G1 X131.443 Y65.114 E0.06049
G1 X132.189 Y65.239 E0.04246 F1080.000
G1 X133.246 Y65.509 E0.06125
G1 X133.960 Y65.757 E0.04246
G1 X134.957 Y66.201 E0.06125
G1 X135.621 Y66.566 E0.04249
G1 X136.529 Y67.170 E0.06122
G1 X137.121 Y67.640 E0.04246
G1 X137.916 Y68.388 E0.06125
G1 X138.423 Y68.953 E0.04264
G1 X139.079 Y69.822 E0.06107
G1 X139.482 Y70.461 E0.04246
G1 X139.985 Y71.430 E0.06126
G1 X140.276 Y72.128 E0.04246
G1 X140.610 Y73.167 E0.06125
G1 X140.780 Y73.906 E0.04257
G1 X140.934 Y74.984 E0.06115
G1 X140.989 Y76.117 E0.06366
G1 X140.989 Y123.883 E2.68137
G1 X140.934 Y125.016 E0.06366
G1 X140.780 Y126.096 E0.06125
G1 X140.610 Y126.833 E0.04246
G1 X140.276 Y127.872 E0.06125
G1 X139.984 Y128.573 E0.04260
G1 X139.482 Y129.539 E0.06112
G1 X139.078 Y130.180 E0.04255
G1 X138.421 Y131.049 E0.06116
G1 X137.916 Y131.612 E0.04246
G1 X137.121 Y132.360 E0.06125
G1 X136.529 Y132.830 E0.04247
G1 X135.620 Y133.434 E0.06125
G1 X134.956 Y133.799 E0.04252
G1 X133.960 Y134.243 E0.06120
G1 X133.243 Y134.492 E0.04261
G1 X132.189 Y134.761 E0.06111
G1 X131.443 Y134.886 E0.04247
G1 X130.369 Y134.976 E0.06049
G1 X69.631 Y134.976 E3.40952
G1 X68.557 Y134.886 E0.06049
G1 X67.811 Y134.761 E0.04246
G1 X66.754 Y134.491 E0.06125
G1 X66.040 Y134.243 E0.04246
G1 X65.043 Y133.799 E0.06125
G1 X64.380 Y133.434 E0.04247
G1 X63.471 Y132.830 E0.06125
G1 X62.879 Y132.360 E0.04246
G1 X62.085 Y131.612 E0.06123
G1 X61.579 Y131.049 E0.04248
G1 X60.921 Y130.178 E0.06125
G1 X60.516 Y129.537 E0.04257
G1 X60.015 Y128.570 E0.06114
G1 X59.724 Y127.872 E0.04246
G1 X59.390 Y126.833 E0.06125
G1 X59.220 Y126.096 E0.04246
G1 X59.066 Y125.016 E0.06125
G1 X59.021 Y124.260 E0.04253
G1 X59.011 Y76.117 E2.70250
G1 X59.066 Y74.984 E0.06366
G1 X59.220 Y73.904 E0.06125
G1 X59.390 Y73.167 E0.04246
G1 X59.724 Y72.128 E0.06125
G1 X60.015 Y71.429 E0.04252
G1 X60.517 Y70.461 E0.06119
G1 X60.922 Y69.821 E0.04252
G1 X61.579 Y68.951 E0.06120
G1 X62.084 Y68.388 E0.04246
G1 X62.835 Y67.681 E0.05788
G1 E-3.00000 F1200.00000
G1 X64.931 Y70.224 F7800.000
G1 E3.00000 F1200.00000
G1 X65.629 Y69.670 E0.05002 F1080.000
G1 X65.852 Y69.521 E0.01508
G1 X66.751 Y69.027 E0.05755
G1 X66.996 Y68.918 E0.01508
G1 X67.964 Y68.582 E0.05754
G1 X68.225 Y68.515 E0.01509
G1 X69.236 Y68.345 E0.05759
G1 X69.504 Y68.323 E0.01506
G1 X70.388 Y68.325 E0.04967
G1 X70.796 Y68.349 E0.02293 F1080.000
G1 X71.807 Y68.523 E0.05755
G1 X72.067 Y68.590 E0.01508
G1 X72.970 Y68.909 E0.05378
G1 X79.687 Y71.925 E0.41329
G1 X79.871 Y71.934 E0.01037
G1 X82.204 Y71.159 E0.13798
G1 X83.122 Y71.619 E0.05766
G1 X83.223 Y71.645 E0.00587
G1 X83.856 Y71.671 E0.03556
G1 X86.180 Y72.720 E0.14315
G1 X87.139 Y73.100 E0.05790
G1 X87.477 Y73.125 E0.01900
G1 X88.079 Y73.386 E0.03688
G1 X88.249 Y73.398 E0.00955
G1 X88.305 Y73.382 E0.00326
G1 X96.614 Y73.382 E0.46643
G1 X96.720 Y73.358 E0.00613
G1 X97.088 Y73.184 E0.02282
G1 X98.032 Y73.395 E0.05433
G1 X98.191 Y73.382 E0.00892
G1 X106.475 Y73.382 E0.46507
G1 X106.585 Y73.356 E0.00634
G1 X106.896 Y73.203 E0.01944
G1 X107.919 Y73.399 E0.05846
G1 X108.076 Y73.382 E0.00890
G1 X110.729 Y73.382 E0.14889
G1 X112.061 Y73.334 E0.07487
G1 X113.764 Y72.851 E0.09933
G1 X114.048 Y72.674 E0.01881
G1 X116.859 Y71.409 E0.17305
G1 X118.848 Y71.795 E0.11370
G1 X119.245 Y72.209 E0.03220
G1 X119.550 Y72.268 E0.01749
G1 X127.030 Y68.909 E0.46026
G1 X127.934 Y68.590 E0.05380
G1 X128.193 Y68.523 E0.01507
G1 X129.204 Y68.349 E0.05756
G1 X129.471 Y68.326 E0.01507
G1 X130.497 Y68.323 E0.05754
G1 X130.764 Y68.345 E0.01508
G1 X131.775 Y68.515 E0.05754
G1 X132.036 Y68.582 E0.01509
G1 X133.004 Y68.918 E0.05755
G1 X133.250 Y69.027 E0.01509
G1 X134.148 Y69.522 E0.05756
G1 X134.372 Y69.670 E0.01508
G1 X135.174 Y70.307 E0.05750
G1 X135.370 Y70.492 E0.01511
G1 X136.056 Y71.256 E0.05763
G1 X136.217 Y71.470 E0.01504
G1 X136.763 Y72.335 E0.05746
G1 X136.888 Y72.574 E0.01513
G1 X137.282 Y73.520 E0.05754
G1 X137.364 Y73.777 E0.01511
G1 X137.595 Y74.777 E0.05760
G1 X137.633 Y75.042 E0.01506
G1 X137.692 Y76.065 E0.05752
G1 X137.685 Y76.334 E0.01510
G1 X137.573 Y77.352 E0.05749
G1 X137.521 Y77.616 E0.01513
G1 X137.215 Y78.666 E0.06137
G1 X132.171 Y91.963 E0.79837
G1 X131.892 Y92.862 E0.05279
G1 X131.746 Y93.670 E0.04611
G1 X131.691 Y94.579 E0.05113
G1 X131.691 Y105.421 E0.60859
G1 X131.750 Y106.359 E0.05279
G1 X131.899 Y107.167 E0.04612
G1 X132.166 Y108.022 E0.05029
G1 X137.215 Y121.335 E0.79924
G1 X137.521 Y122.382 E0.06124
G1 X137.573 Y122.647 E0.01513
G1 X137.685 Y123.667 E0.05762
G1 X137.692 Y123.935 E0.01505
G1 X137.633 Y124.958 E0.05751
G1 X137.595 Y125.224 E0.01510
G1 X137.365 Y126.222 E0.05751
G1 X137.282 Y126.479 E0.01511
G1 X136.888 Y127.426 E0.05761
G1 X136.764 Y127.664 E0.01505
G1 X136.216 Y128.531 E0.05756
G1 X136.055 Y128.745 E0.01506
G1 X135.370 Y129.508 E0.05751
G1 X135.175 Y129.692 E0.01510
G1 X134.372 Y130.330 E0.05756
G1 X134.148 Y130.479 E0.01508
G1 X133.372 Y130.905 E0.04969
G1 X133.004 Y131.082 E0.02293
G1 X132.035 Y131.419 E0.05759
G1 X131.775 Y131.485 E0.01505
G1 X130.764 Y131.655 E0.05753
G1 X130.497 Y131.677 E0.01508
G1 X129.472 Y131.674 E0.05752
G1 X129.204 Y131.651 E0.01510
G1 X128.193 Y131.477 E0.05755
G1 X127.933 Y131.410 E0.01509
G1 X126.905 Y131.042 E0.06131
G1 X114.236 Y125.341 E0.77985
G1 X113.240 Y124.974 E0.05961
G1 X112.304 Y124.770 E0.05375
G1 X111.211 Y124.691 E0.06154
G1 X88.789 Y124.691 E1.25863
G1 X87.696 Y124.770 E0.06154
G1 X86.760 Y124.974 E0.05375
G1 X85.780 Y125.334 E0.05863
G1 X73.095 Y131.042 E0.78082
G1 X72.067 Y131.410 E0.06130
G1 X71.807 Y131.477 E0.01509
G1 X70.796 Y131.651 E0.05757
G1 X70.529 Y131.674 E0.01507
G1 X69.503 Y131.677 E0.05754
G1 X69.236 Y131.654 E0.01508
G1 X68.225 Y131.485 E0.05755
G1 X67.964 Y131.418 E0.01509
G1 X66.996 Y131.082 E0.05753
G1 X66.751 Y130.973 E0.01510
G1 X65.852 Y130.478 E0.05756
G1 X65.628 Y130.330 E0.01508
G1 X64.826 Y129.692 E0.05753
G1 X64.630 Y129.508 E0.01509
G1 X63.945 Y128.745 E0.05755
G1 X63.783 Y128.531 E0.01508
G1 X63.236 Y127.663 E0.05759
G1 X63.112 Y127.425 E0.01506
G1 X62.718 Y126.479 E0.05753
G1 X62.636 Y126.223 E0.01509
G1 X62.405 Y125.224 E0.05755
G1 X62.367 Y124.958 E0.01509
G1 X62.308 Y123.934 E0.05757
G1 X62.315 Y123.666 E0.01507
G1 X62.427 Y122.647 E0.05754
G1 X62.479 Y122.383 E0.01508
G1 X62.785 Y121.335 E0.06130
G1 X67.834 Y108.023 E0.79924
G1 X68.101 Y107.167 E0.05030
G1 X68.250 Y106.359 E0.04612
G1 X68.309 Y105.421 E0.05279
G1 X68.309 Y94.579 E0.60859
G1 X68.254 Y93.670 E0.05113
G1 X68.108 Y92.862 E0.04612
G1 X67.829 Y91.963 E0.05279
G1 X62.785 Y78.665 E0.79841
G1 X62.479 Y77.617 E0.06131
G1 X62.427 Y77.353 E0.01508
G1 X62.315 Y76.334 E0.05757
G1 X62.308 Y76.065 E0.01507
G1 X62.367 Y75.042 E0.05754
G1 X62.405 Y74.776 E0.01509
G1 X62.636 Y73.777 E0.05754
G1 X62.718 Y73.521 E0.01509
G1 X63.112 Y72.574 E0.05757
G1 X63.236 Y72.336 E0.01507
G1 X63.708 Y71.588 E0.04968
G1 X63.945 Y71.255 E0.02293
G1 X64.630 Y70.492 E0.05754
G1 X64.884 Y70.262 E0.01925
G1 E-3.00000 F1200.00000
G1 X119.436 Y72.858 F7800.000
G1 E3.00000 F1200.00000
G1 X127.203 Y69.368 E0.47797 F1080.000
G1 X128.077 Y69.060 E0.05206
G1 X128.297 Y69.003 E0.01275
G1 X129.267 Y68.836 E0.05524
G1 X129.493 Y68.817 E0.01275
G1 X130.477 Y68.814 E0.05522
G1 X130.703 Y68.833 E0.01276
G1 X131.674 Y68.996 E0.05522
G1 X131.894 Y69.052 E0.01277
G1 X132.823 Y69.375 E0.05523
G1 X133.031 Y69.468 E0.01276
G1 X133.893 Y69.942 E0.05524
G1 X134.082 Y70.068 E0.01276
G1 X134.852 Y70.679 E0.05519
G1 X135.018 Y70.835 E0.01279
G1 X135.676 Y71.568 E0.05529
G1 X135.813 Y71.749 E0.01273
G1 X136.337 Y72.580 E0.05515
G1 X136.443 Y72.782 E0.01280
G1 X136.821 Y73.690 E0.05522
G1 X136.890 Y73.907 E0.01278
G1 X137.112 Y74.867 E0.05527
G1 X137.144 Y75.091 E0.01274
G1 X137.201 Y76.073 E0.05520
G1 X137.195 Y76.300 E0.01278
G1 X137.087 Y77.277 E0.05517
G1 X137.043 Y77.501 E0.01280
G1 X136.752 Y78.501 E0.05846
G1 X131.702 Y91.817 E0.79946
G1 X131.415 Y92.744 E0.05446
G1 X131.258 Y93.611 E0.04945
G1 X131.201 Y94.550 E0.05280
G1 X131.200 Y105.436 E0.61109
G1 X131.258 Y106.389 E0.05363
G1 X131.415 Y107.256 E0.04945
G1 X131.707 Y108.197 E0.05529
G1 X136.752 Y121.499 E0.79866
G1 X137.043 Y122.498 E0.05835
G1 X137.087 Y122.721 E0.01280
G1 X137.182 Y123.581 E0.04855
G1 X137.201 Y123.927 E0.01946
G1 X137.144 Y124.909 E0.05519
G1 X137.111 Y125.134 E0.01278
G1 X136.891 Y126.092 E0.05520
G1 X136.821 Y126.309 E0.01279
G1 X136.442 Y127.218 E0.05528
G1 X136.338 Y127.419 E0.01274
G1 X135.812 Y128.251 E0.05524
G1 X135.675 Y128.433 E0.01274
G1 X135.019 Y129.164 E0.05520
G1 X134.853 Y129.320 E0.01278
G1 X134.082 Y129.932 E0.05524
G1 X133.893 Y130.058 E0.01276
G1 X133.136 Y130.475 E0.04853
G1 X132.823 Y130.625 E0.01945
G1 X131.893 Y130.948 E0.05527
G1 X131.673 Y131.004 E0.01273
G1 X130.703 Y131.167 E0.05521
G1 X130.477 Y131.185 E0.01276
G1 X129.493 Y131.183 E0.05521
G1 X129.267 Y131.164 E0.01278
G1 X128.297 Y130.997 E0.05523
G1 X128.077 Y130.940 E0.01277
G1 X127.097 Y130.590 E0.05841
G1 X114.422 Y124.886 E0.78024
G1 X113.377 Y124.501 E0.06252
G1 X112.373 Y124.283 E0.05764
G1 X111.228 Y124.200 E0.06446
G1 X88.772 Y124.200 E1.26057
G1 X87.627 Y124.283 E0.06446
G1 X86.623 Y124.501 E0.05764
G1 X85.594 Y124.879 E0.06155
G1 X72.903 Y130.590 E0.78121
G1 X71.923 Y130.940 E0.05840
G1 X71.703 Y130.997 E0.01277
G1 X70.733 Y131.164 E0.05524
G1 X70.507 Y131.183 E0.01275
G1 X69.523 Y131.185 E0.05522
G1 X69.297 Y131.167 E0.01276
G1 X68.326 Y131.004 E0.05523
G1 X68.106 Y130.948 E0.01276
G1 X67.177 Y130.625 E0.05521
G1 X66.969 Y130.532 E0.01278
G1 X66.107 Y130.058 E0.05524
G1 X65.918 Y129.932 E0.01276
G1 X65.147 Y129.321 E0.05521
G1 X64.982 Y129.165 E0.01277
G1 X64.324 Y128.432 E0.05523
G1 X64.187 Y128.251 E0.01276
G1 X63.662 Y127.419 E0.05526
G1 X63.557 Y127.217 E0.01274
G1 X63.179 Y126.309 E0.05521
G1 X63.109 Y126.093 E0.01277
G1 X62.889 Y125.134 E0.05523
G1 X62.856 Y124.909 E0.01276
G1 X62.799 Y123.926 E0.05525
G1 X62.805 Y123.699 E0.01275
G1 X62.913 Y122.722 E0.05522
G1 X62.957 Y122.498 E0.01276
G1 X63.247 Y121.499 E0.05840
G1 X68.293 Y108.197 E0.79866
G1 X68.585 Y107.256 E0.05529
G1 X68.742 Y106.389 E0.04945
G1 X68.800 Y105.436 E0.05363
G1 X68.800 Y94.564 E0.61026
G1 X68.739 Y93.581 E0.05529
G1 X68.578 Y92.715 E0.04945
G1 X68.298 Y91.817 E0.05280
G1 X63.248 Y78.501 E0.79949
G1 X62.957 Y77.501 E0.05841
G1 X62.913 Y77.278 E0.01276
G1 X62.805 Y76.300 E0.05525
G1 X62.799 Y76.073 E0.01275
G1 X62.856 Y75.091 E0.05522
G1 X62.889 Y74.866 E0.01276
G1 X63.109 Y73.907 E0.05522
G1 X63.179 Y73.691 E0.01277
G1 X63.558 Y72.782 E0.05525
G1 X63.662 Y72.581 E0.01275
G1 X64.187 Y71.749 E0.05524
G1 X64.324 Y71.567 E0.01275
G1 X64.982 Y70.835 E0.05522
G1 X65.147 Y70.679 E0.01276
G1 X65.824 Y70.142 E0.04852
G1 X66.107 Y69.942 E0.01945
G1 X66.969 Y69.468 E0.05523
G1 X67.177 Y69.375 E0.01276
G1 X68.106 Y69.052 E0.05522
G1 X68.326 Y68.996 E0.01277
G1 X69.297 Y68.833 E0.05526
G1 X69.523 Y68.814 E0.01274
G1 X70.507 Y68.817 E0.05521
G1 X70.733 Y68.836 E0.01277
G1 X71.703 Y69.003 E0.05523
G1 X71.923 Y69.060 E0.01276
G1 X72.903 Y69.410 E0.05841
G1 X79.660 Y72.451 E0.41592
G1 X79.844 Y72.460 E0.01037
G1 X82.165 Y71.689 E0.13731
G1 X82.996 Y72.106 E0.05218
G1 X83.098 Y72.132 E0.00587
G1 X83.741 Y72.158 E0.03616
G1 X85.895 Y73.135 E0.13279
G1 X87.038 Y73.588 E0.06902
G1 X87.368 Y73.613 E0.01854
G1 X88.045 Y73.907 E0.04143
G1 X88.215 Y73.918 E0.00955
G1 X88.373 Y73.873 E0.00926
G1 X96.725 Y73.873 E0.46879
G1 X96.831 Y73.849 E0.00613
G1 X97.145 Y73.700 E0.01953
G1 X98.046 Y73.902 E0.05184
G1 X98.169 Y73.898 E0.00689
G1 X98.259 Y73.873 E0.00524
G1 X106.590 Y73.873 E0.46766
G1 X106.700 Y73.847 E0.00634
G1 X106.965 Y73.716 E0.01661
G1 X107.941 Y73.903 E0.05574
G1 X108.145 Y73.873 E0.01157
G1 X110.634 Y73.877 E0.13973
G1 X112.139 Y73.823 E0.08457
G1 X113.974 Y73.301 E0.10707
G1 X114.288 Y73.104 E0.02079
G1 X116.919 Y71.920 E0.16195
G1 X118.601 Y72.247 E0.09621
G1 X119.130 Y72.798 E0.04290
G1 X119.377 Y72.846 E0.01412
G1 X119.321 Y73.448 F7800.000
G1 X127.375 Y69.828 E0.49568 F1080.000
G1 X128.221 Y69.530 E0.05031
G1 X128.401 Y69.483 E0.01043
G1 X129.330 Y69.323 E0.05292
G1 X129.515 Y69.307 E0.01043
G1 X130.457 Y69.306 E0.05290
G1 X130.643 Y69.321 E0.01044
G1 X131.572 Y69.477 E0.05290
G1 X131.752 Y69.523 E0.01044
G1 X132.643 Y69.832 E0.05291
G1 X132.813 Y69.908 E0.01044
G1 X133.639 Y70.362 E0.05291
G1 X133.793 Y70.465 E0.01044
G1 X134.531 Y71.051 E0.05288
G1 X134.667 Y71.179 E0.01046
G1 X135.297 Y71.881 E0.05296
G1 X135.409 Y72.029 E0.01041
G1 X135.911 Y72.825 E0.05284
G1 X135.997 Y72.990 E0.01048
G1 X136.360 Y73.860 E0.05290
G1 X136.417 Y74.038 E0.01046
G1 X136.628 Y74.957 E0.05294
G1 X136.655 Y75.140 E0.01043
G1 X136.710 Y76.081 E0.05288
G1 X136.705 Y76.267 E0.01045
G1 X136.601 Y77.203 E0.05286
G1 X136.565 Y77.386 E0.01047
G1 X136.290 Y78.337 E0.05555
G1 X131.237 Y91.657 E0.79972
G1 X130.944 Y92.597 E0.05530
G1 X130.773 Y93.522 E0.05278
G1 X130.710 Y94.535 E0.05696
G1 X130.709 Y105.450 E0.61276
G1 X130.769 Y106.449 E0.05613
G1 X130.937 Y107.374 E0.05279
G1 X131.242 Y108.357 E0.05779
G1 X136.290 Y121.664 E0.79892
G1 X136.565 Y122.613 E0.05546
G1 X136.601 Y122.796 E0.01047
G1 X136.705 Y123.733 E0.05296
G1 X136.710 Y123.919 E0.01042
G1 X136.655 Y124.859 E0.05288
G1 X136.628 Y125.044 E0.01045
G1 X136.417 Y125.962 E0.05288
G1 X136.360 Y126.139 E0.01046
G1 X135.997 Y127.010 E0.05295
G1 X135.912 Y127.175 E0.01042
G1 X135.408 Y127.972 E0.05292
G1 X135.296 Y128.120 E0.01043
G1 X134.667 Y128.821 E0.05288
G1 X134.531 Y128.949 E0.01045
G1 X133.793 Y129.535 E0.05291
G1 X133.638 Y129.638 E0.01044
G1 X132.812 Y130.092 E0.05292
G1 X132.643 Y130.168 E0.01043
G1 X131.752 Y130.477 E0.05294
G1 X131.572 Y130.523 E0.01042
G1 X130.643 Y130.679 E0.05289
G1 X130.457 Y130.694 E0.01044
G1 X129.515 Y130.693 E0.05289
G1 X129.330 Y130.676 E0.01045
G1 X128.401 Y130.517 E0.05291
G1 X128.221 Y130.470 E0.01045
G1 X127.289 Y130.138 E0.05551
G1 X114.608 Y124.431 E0.78063
G1 X113.514 Y124.028 E0.06544
G1 X112.408 Y123.791 E0.06347
G1 X111.245 Y123.709 E0.06544
G1 X88.755 Y123.709 E1.26252
G1 X87.558 Y123.796 E0.06738
G1 X86.486 Y124.028 E0.06154
G1 X85.408 Y124.425 E0.06447
G1 X72.711 Y130.138 E0.78160
G1 X71.780 Y130.470 E0.05550
G1 X71.599 Y130.517 E0.01045
G1 X70.670 Y130.676 E0.05292
G1 X70.485 Y130.692 E0.01044
G1 X69.543 Y130.694 E0.05290
G1 X69.357 Y130.679 E0.01044
G1 X68.525 Y130.540 E0.04736
G1 X68.248 Y130.477 E0.01598
G1 X67.358 Y130.168 E0.05289
G1 X67.188 Y130.092 E0.01045
G1 X66.362 Y129.638 E0.05291
G1 X66.207 Y129.535 E0.01044
G1 X65.469 Y128.949 E0.05289
G1 X65.333 Y128.821 E0.01045
G1 X64.704 Y128.120 E0.05291
G1 X64.591 Y127.972 E0.01044
G1 X64.088 Y127.174 E0.05293
G1 X64.003 Y127.009 E0.01042
G1 X63.640 Y126.140 E0.05289
G1 X63.583 Y125.962 E0.01045
G1 X63.372 Y125.044 E0.05291
G1 X63.345 Y124.860 E0.01044
G1 X63.296 Y124.017 E0.04737
